; generated by PrusaSlicer 2.5.0+MacOS-arm64 on 2023-06-06 at 11:54:33 UTC

; 

; external perimeters extrusion width = 0.63mm
; perimeters extrusion width = 0.66mm
; infill extrusion width = 0.66mm
; solid infill extrusion width = 0.66mm
; top infill extrusion width = 0.60mm
; first layer extrusion width = 0.63mm

M201 X500 Y500 Z100 E5000 ; sets maximum accelerations, mm/sec^2
M203 X500 Y500 Z10 E60 ; sets maximum feedrates, mm / sec
M204 P500 R1000 T500 ; sets acceleration (P, T) and retract acceleration (R), mm/sec^2
M205 X8.00 Y8.00 Z0.40 E5.00 ; sets the jerk limits, mm/sec
M205 S0 T0 ; sets the minimum extruding and travel feed rate, mm/sec
M107
;TYPE:Custom
G90 ; use absolute coordinates
M83 ; extruder relative mode
M104 S150 ; set temporary nozzle temp to prevent oozing during homing
M140 S95 ; set final bed temp
G4 S30 ; allow partial nozzle warmup
G28 ; home all axis
G1 Z50 F240
G1 X2.0 Y10 F3000
M104 S240 ; set final nozzle temp
M190 S95 ; wait for bed temp to stabilize
M109 S240 ; wait for nozzle temp to stabilize
G1 Z0.28 F240
G92 E0
G1 X2.0 Y140 E10 F1500 ; prime the nozzle
G1 X2.3 Y140 F5000
G92 E0
G1 X2.3 Y10 E10 F1200 ; prime the nozzle
G92 E0
G21 ; set units to millimeters
G90 ; use absolute coordinates
M83 ; use relative distances for extrusion
; Filament gcode
M107
;LAYER_CHANGE
;Z:0.3
;HEIGHT:0.3
;BEFORE_LAYER_CHANGE
G92 E0
;0.3


G1 E-5 F3600
G1 Z.1 F9000
;AFTER_LAYER_CHANGE
;0.3
G1 X79.071 Y87.768
G1 E5 F2400
M204 S500
;TYPE:Skirt/Brim
;WIDTH:0.63
G1 F1200
G1 X80.503 Y86.894 E.1124
G1 X81.485 Y86.725 E.06682
G1 X91.109 Y86.437 E.64527
G1 X128.894 Y86.437 E2.53235
G1 X138.518 Y86.725 E.64527
G1 X140.135 Y87.168 E.1124
G1 X140.932 Y87.768 E.06682
G1 X154.001 Y100.837 E1.23873
G1 X154.875 Y102.269 E.1124
G1 X155.044 Y103.459 E.0806
G1 X154.752 Y113.796 E.69305
G1 X154.312 Y115.414 E.1124
G1 X153.562 Y116.355 E.08059
G1 X148.99 Y120.438 E.41084
G1 X146.777 Y122.281 E.19302
G1 X144.499 Y123.998 E.19118
G1 X142.068 Y125.652 E.19704
G1 X139.595 Y127.16 E.19411
G1 X137.052 Y128.546 E.19411
G1 X134.382 Y129.834 E.19869
G1 X131.38 Y131.017 E.21624
G1 X123.879 Y133.421 E.52792
G1 X120.064 Y134.225 E.26129
G1 X115.844 Y134.797 E.28539
G1 X111.508 Y135.067 E.29117
G1 X107.019 Y135.011 E.30091
G1 X104.202 Y134.802 E.18932
G1 X101.542 Y134.479 E.17958
G1 X97.309 Y133.71 E.28828
G1 X94.659 Y132.987 E.18415
G1 X89.194 Y131.211 E.38508
G1 X87.091 Y130.452 E.14988
G1 X84.208 Y129.173 E.21136
G1 X80.37 Y127.138 E.29112
G1 X77.935 Y125.651 E.19119
G1 X75.695 Y124.134 E.18136
G1 X72.249 Y121.489 E.29113
G1 X66.444 Y116.364 E.51896
G1 X65.49 Y114.984 E.1124
G1 X65.253 Y113.804 E.08066
G1 X64.957 Y103.462 E.69341
G1 X65.304 Y101.822 E.1124
G1 X66 Y100.839 E.08068
G1 X79.007 Y87.831 E1.23286
G1 E-3.5 F3600
;WIPE_START
G1 F7200
G1 X80.503 Y86.894 E-.83821
G1 X81.485 Y86.725 E-.47357
G1 X81.723 Y86.718 E-.11322
;WIPE_END
G1 E-.075 F3600
G1 X81.462 Y91.746 F9000
G1 E5 F2400
G1 F1200
G1 X82.883 Y91.143 E.1035
G1 X84.341 Y90.744 E.10127
G1 X88.218 Y90.597 E.26007
G1 X89.855 Y90.929 E.11193
G1 X91.28 Y91.428 E.10119
G1 X92.732 Y92.181 E.10963
G1 X95.725 Y94.551 E.25585
G1 X96.363 Y95.022 E.05316
G1 X97.03 Y95.48 E.05417
G1 X97.71 Y95.914 E.0541
G1 X98.413 Y96.328 E.05465
G1 X99.117 Y96.711 E.05375
G1 X99.84 Y97.073 E.05419
G1 X100.575 Y97.41 E.05417
G1 X101.243 Y97.689 E.04854
G1 X102.911 Y98.287 E.11875
G1 X103.616 Y98.5 E.04937
G1 X104.398 Y98.706 E.05416
G1 X105.186 Y98.885 E.05416
G1 X105.98 Y99.037 E.05417
G1 X106.778 Y99.162 E.05417
G1 X107.581 Y99.259 E.05417
G1 X108.386 Y99.328 E.05418
G1 X109.193 Y99.37 E.05417
G1 X110.001 Y99.384 E.05416
G1 X110.809 Y99.37 E.05416
G1 X111.617 Y99.328 E.05418
G1 X112.422 Y99.259 E.05418
G1 X113.224 Y99.162 E.05415
G1 X114.023 Y99.037 E.0542
G1 X114.817 Y98.885 E.05417
G1 X115.605 Y98.706 E.05414
G1 X116.317 Y98.518 E.04939
G1 X118.004 Y97.978 E.11872
G1 X118.682 Y97.722 E.04857
G1 X119.428 Y97.41 E.05417
G1 X120.138 Y97.085 E.05231
G1 X121.325 Y96.471 E.08957
G1 X122.334 Y95.887 E.07811
G1 X122.973 Y95.48 E.05083
G1 X123.64 Y95.022 E.0542
G1 X124.29 Y94.542 E.05414
G1 X124.925 Y94.038 E.05437
G1 X126.59 Y92.648 E.14538
G1 X128.176 Y91.68 E.12449
G1 X129.848 Y91.018 E.12055
G1 X131.839 Y90.594 E.13643
G1 X135.095 Y90.658 E.2182
G1 X136.965 Y91.091 E.12863
G1 X138.642 Y91.796 E.12194
G1 X140.752 Y93.229 E.17094
G1 X148.729 Y101.315 E.76127
G1 X150.03 Y103.541 E.17279
G1 X150.768 Y105.921 E.16702
G1 X150.952 Y108.093 E.14605
G1 X150.711 Y110.698 E.17532
G1 X150.179 Y112.467 E.12381
G1 X149.332 Y114.184 E.1283
G1 X147.824 Y116.142 E.16566
G1 X145.332 Y118.34 E.22267
G1 X144.26 Y119.209 E.09251
G1 X143.19 Y120.034 E.09058
G1 X142.1 Y120.833 E.09056
G1 X140.984 Y121.609 E.09105
G1 X139.856 Y122.353 E.09058
G1 X138.711 Y123.069 E.09056
G1 X137.543 Y123.76 E.09094
G1 X136.378 Y124.412 E.08945
G1 X135.202 Y125.033 E.08914
G1 X133.95 Y125.655 E.09368
G1 X132.554 Y126.302 E.10312
G1 X131.161 Y126.873 E.10092
G1 X129.151 Y127.576 E.14271
G1 X123.539 Y129.391 E.39529
G1 X122.052 Y129.785 E.10309
G1 X120.648 Y130.08 E.09617
G1 X119.326 Y130.323 E.09008
G1 X118.003 Y130.534 E.08981
G1 X116.64 Y130.716 E.0921
G1 X115.318 Y130.86 E.08917
G1 X114.008 Y130.971 E.08811
G1 X112.695 Y131.05 E.08815
G1 X111.364 Y131.099 E.08925
G1 X110.018 Y131.116 E.09022
G1 X108.63 Y131.099 E.093
G1 X107.308 Y131.05 E.08867
G1 X105.996 Y130.971 E.08811
G1 X104.671 Y130.858 E.08913
G1 X103.34 Y130.713 E.08973
G1 X101.971 Y130.529 E.09255
G1 X100.67 Y130.322 E.08833
G1 X99.381 Y130.086 E.08782
G1 X97.966 Y129.789 E.09686
G1 X96.516 Y129.406 E.10051
G1 X90.778 Y127.552 E.40415
G1 X89.59 Y127.148 E.08411
G1 X88.46 Y126.724 E.08086
G1 X87.277 Y126.225 E.08604
G1 X86.025 Y125.641 E.09261
G1 X84.816 Y125.04 E.0905
G1 X83.635 Y124.417 E.08949
G1 X82.474 Y123.768 E.08908
G1 X81.293 Y123.07 E.09198
G1 X80.159 Y122.361 E.0896
G1 X79.032 Y121.617 E.09053
G1 X77.916 Y120.842 E.09108
G1 X76.826 Y120.043 E.09056
G1 X75.771 Y119.231 E.08925
G1 X74.63 Y118.305 E.09844
G1 X72.044 Y115.994 E.23243
G1 X70.74 Y114.297 E.14342
G1 X69.794 Y112.387 E.14288
G1 X69.19 Y110.106 E.15815
G1 X69.074 Y107.223 E.19334
G1 X69.442 Y105.046 E.14797
G1 X70.22 Y103.018 E.14561
G1 X71.798 Y100.661 E.19007
G1 X79.767 Y92.809 E.7498
G1 X81.385 Y91.794 E.12802
G1 X81.684 Y92.274 F9000
G1 F1200
G1 X83.053 Y91.683 E.09996
G1 X84.396 Y91.308 E.09343
G1 X88.205 Y91.164 E.25548
G1 X89.687 Y91.469 E.10136
G1 X91.038 Y91.94 E.09591
G1 X92.448 Y92.67 E.10642
G1 X95.381 Y95 E.25104
G1 X96.035 Y95.483 E.05449
G1 X96.717 Y95.951 E.05547
G1 X97.415 Y96.396 E.05541
G1 X98.134 Y96.82 E.05596
G1 X98.855 Y97.213 E.05505
G1 X99.595 Y97.584 E.05549
G1 X100.348 Y97.929 E.05548
G1 X101.039 Y98.217 E.05016
G1 X102.734 Y98.825 E.1207
G1 X103.463 Y99.044 E.051
G1 X104.263 Y99.255 E.05547
G1 X105.07 Y99.439 E.05547
G1 X105.883 Y99.594 E.05548
G1 X106.701 Y99.722 E.05548
G1 X107.522 Y99.821 E.05547
G1 X108.347 Y99.892 E.05549
G1 X109.174 Y99.935 E.05547
G1 X110.001 Y99.949 E.05547
G1 X110.829 Y99.935 E.05546
G1 X111.656 Y99.892 E.05548
G1 X112.48 Y99.821 E.05548
G1 X113.302 Y99.722 E.05546
G1 X114.12 Y99.594 E.0555
G1 X114.933 Y99.439 E.05547
G1 X115.74 Y99.255 E.05545
G1 X116.476 Y99.061 E.05102
G1 X118.191 Y98.512 E.12068
G1 X118.891 Y98.247 E.05019
G1 X119.655 Y97.928 E.05548
G1 X120.386 Y97.594 E.05386
G1 X121.597 Y96.967 E.09136
G1 X122.627 Y96.371 E.07981
G1 X123.285 Y95.952 E.05229
G1 X123.968 Y95.483 E.0555
G1 X124.633 Y94.991 E.05545
G1 X125.283 Y94.476 E.05553
G1 X126.903 Y93.119 E.14165
G1 X128.449 Y92.176 E.1214
G1 X130.034 Y91.553 E.1141
G1 X131.861 Y91.16 E.12527
G1 X135.053 Y91.223 E.21396
G1 X136.811 Y91.636 E.12103
G1 X138.395 Y92.305 E.11526
G1 X140.41 Y93.68 E.16347
G1 X148.301 Y101.686 E.75336
G1 X149.524 Y103.796 E.16345
G1 X150.218 Y106.058 E.15856
G1 X150.387 Y108.065 E.13502
G1 X150.151 Y110.617 E.17175
G1 X149.661 Y112.239 E.11353
G1 X148.866 Y113.862 E.12115
G1 X147.429 Y115.736 E.15826
G1 X144.962 Y117.911 E.22042
G1 X143.912 Y118.763 E.09064
G1 X142.853 Y119.58 E.08965
G1 X141.768 Y120.375 E.0901
G1 X140.67 Y121.139 E.08966
G1 X139.554 Y121.875 E.08965
G1 X138.414 Y122.588 E.09009
G1 X137.258 Y123.272 E.09001
G1 X136.105 Y123.917 E.08853
G1 X134.947 Y124.528 E.08774
G1 X133.702 Y125.147 E.09319
G1 X132.322 Y125.786 E.10192
G1 X130.967 Y126.341 E.09816
G1 X128.967 Y127.041 E.14199
G1 X123.372 Y128.851 E.3941
G1 X121.929 Y129.233 E.10008
G1 X120.542 Y129.525 E.09496
G1 X119.234 Y129.765 E.08915
G1 X117.917 Y129.974 E.08935
G1 X116.576 Y130.154 E.0907
G1 X115.26 Y130.297 E.08872
G1 X113.97 Y130.406 E.08676
G1 X112.671 Y130.485 E.08724
G1 X111.347 Y130.534 E.08879
G1 X110.021 Y130.551 E.08883
G1 X108.648 Y130.534 E.09207
G1 X107.332 Y130.485 E.08821
G1 X106.04 Y130.407 E.08676
G1 X104.729 Y130.296 E.08821
G1 X103.405 Y130.151 E.08926
G1 X102.057 Y129.97 E.09116
G1 X100.769 Y129.765 E.08742
G1 X99.486 Y129.53 E.08736
G1 X98.103 Y129.24 E.0947
G1 X96.683 Y128.866 E.09847
G1 X90.958 Y127.016 E.40318
G1 X89.776 Y126.614 E.08368
G1 X88.675 Y126.201 E.07886
G1 X87.512 Y125.711 E.08459
G1 X86.267 Y125.13 E.09202
G1 X85.071 Y124.535 E.08957
G1 X83.908 Y123.921 E.08812
G1 X82.753 Y123.276 E.08862
G1 X81.59 Y122.588 E.09059
G1 X80.468 Y121.887 E.08868
G1 X79.352 Y121.151 E.08959
G1 X78.242 Y120.379 E.09062
G1 X77.168 Y119.593 E.08917
G1 X76.124 Y118.789 E.08829
G1 X74.992 Y117.87 E.09775
G1 X72.441 Y115.59 E.22932
G1 X71.234 Y114.02 E.13269
G1 X70.333 Y112.212 E.13539
G1 X69.754 Y110.051 E.14994
G1 X69.64 Y107.23 E.18924
G1 X69.98 Y105.221 E.13657
G1 X70.708 Y103.304 E.1374
G1 X72.216 Y101.044 E.1821
G1 X80.141 Y93.234 E.7457
G1 X81.608 Y92.322 E.11574
G1 X81.904 Y92.802 F9000
G1 F1200
G1 X82.03 Y92.725 E.00987
G1 X83.255 Y92.212 E.08904
G1 X84.515 Y91.862 E.08767
G1 X88.125 Y91.725 E.24207
G1 X89.554 Y92.019 E.09779
G1 X90.831 Y92.467 E.09073
G1 X92.162 Y93.159 E.10054
G1 X95.037 Y95.448 E.24628
G1 X95.707 Y95.944 E.05584
G1 X96.405 Y96.423 E.05678
G1 X97.119 Y96.878 E.05672
G1 X97.855 Y97.312 E.05726
G1 X98.593 Y97.714 E.05635
G1 X99.351 Y98.094 E.0568
G1 X100.121 Y98.447 E.05678
G1 X100.834 Y98.744 E.05179
G1 X102.557 Y99.362 E.12266
G1 X103.309 Y99.589 E.05264
G1 X104.128 Y99.805 E.05677
G1 X104.954 Y99.992 E.05677
G1 X105.786 Y100.152 E.05678
G1 X106.623 Y100.282 E.05678
G1 X107.464 Y100.384 E.05678
G1 X108.308 Y100.457 E.05679
G1 X109.155 Y100.5 E.05678
G1 X110.001 Y100.515 E.05677
G1 X110.848 Y100.5 E.05677
G1 X111.694 Y100.457 E.05678
G1 X112.539 Y100.384 E.05679
G1 X113.38 Y100.282 E.05676
G1 X114.217 Y100.152 E.0568
G1 X115.049 Y99.992 E.05678
G1 X115.875 Y99.805 E.05675
G1 X116.634 Y99.604 E.05266
G1 X118.377 Y99.046 E.12264
G1 X119.1 Y98.773 E.05181
G1 X119.882 Y98.447 E.05678
G1 X120.634 Y98.102 E.05541
G1 X121.868 Y97.464 E.09315
G1 X122.921 Y96.854 E.08152
G1 X123.598 Y96.423 E.05376
G1 X124.296 Y95.943 E.0568
G1 X124.977 Y95.44 E.05675
G1 X125.64 Y94.914 E.05672
G1 X127.216 Y93.591 E.13791
G1 X128.722 Y92.671 E.11826
G1 X130.218 Y92.088 E.10762
G1 X131.883 Y91.726 E.11418
G1 X135.012 Y91.788 E.2097
G1 X136.615 Y92.167 E.11038
G1 X138.102 Y92.789 E.10805
G1 X140.027 Y94.098 E.15601
G1 X147.83 Y102.002 E.74442
G1 X148.993 Y103.995 E.15463
G1 X149.657 Y106.137 E.15031
G1 X149.821 Y108.039 E.1279
G1 X149.59 Y110.536 E.16807
G1 X149.127 Y112.052 E.10625
G1 X148.399 Y113.542 E.11112
G1 X147.034 Y115.33 E.15082
G1 X144.601 Y117.476 E.21736
G1 X143.558 Y118.322 E.09
G1 X142.51 Y119.13 E.08872
G1 X141.437 Y119.916 E.08916
G1 X140.35 Y120.672 E.08873
G1 X139.245 Y121.401 E.08872
G1 X138.117 Y122.107 E.08916
G1 X136.979 Y122.78 E.08862
G1 X135.838 Y123.418 E.08762
G1 X134.692 Y124.023 E.08682
G1 X133.46 Y124.635 E.09219
G1 X132.09 Y125.27 E.10123
G1 X130.759 Y125.815 E.09637
G1 X128.79 Y126.504 E.13984
G1 X123.205 Y128.31 E.39336
G1 X121.791 Y128.685 E.09806
G1 X120.436 Y128.969 E.09277
G1 X119.135 Y129.208 E.08868
G1 X117.832 Y129.415 E.08842
G1 X116.511 Y129.592 E.08931
G1 X115.202 Y129.734 E.08826
G1 X113.926 Y129.842 E.08585
G1 X112.647 Y129.92 E.08589
G1 X111.329 Y129.969 E.08833
G1 X110.025 Y129.985 E.08744
G1 X108.665 Y129.968 E.09114
G1 X107.363 Y129.921 E.0873
G1 X106.085 Y129.843 E.08585
G1 X104.787 Y129.733 E.0873
G1 X103.47 Y129.589 E.0888
G1 X102.142 Y129.411 E.08977
G1 X100.861 Y129.207 E.08696
G1 X99.592 Y128.974 E.08645
G1 X98.227 Y128.688 E.09351
G1 X96.849 Y128.325 E.09546
G1 X91.134 Y126.479 E.40251
G1 X89.963 Y126.08 E.08294
G1 X88.889 Y125.677 E.07685
G1 X87.736 Y125.191 E.08385
G1 X86.51 Y124.619 E.0907
G1 X85.332 Y124.033 E.08818
G1 X84.175 Y123.423 E.08766
G1 X83.038 Y122.788 E.08725
G1 X81.881 Y122.103 E.09013
G1 X80.776 Y121.413 E.0873
G1 X79.672 Y120.685 E.08866
G1 X78.567 Y119.917 E.09015
G1 X77.505 Y119.139 E.08825
G1 X76.472 Y118.343 E.08735
G1 X75.354 Y117.435 E.09657
G1 X72.838 Y115.186 E.22616
G1 X71.7 Y113.698 E.12554
G1 X70.871 Y112.037 E.12444
G1 X70.318 Y109.996 E.14169
G1 X70.207 Y107.237 E.1851
G1 X70.519 Y105.394 E.12527
G1 X71.198 Y103.59 E.12919
G1 X72.634 Y101.426 E.17406
G1 X80.515 Y93.66 E.74155
G1 X81.828 Y92.85 E.10336
G1 X82.122 Y93.331 F9000
G1 F1200
G1 X82.305 Y93.219 E.0144
G1 X83.426 Y92.751 E.08141
G1 X84.571 Y92.426 E.07978
G1 X88.111 Y92.291 E.23738
G1 X89.385 Y92.559 E.08723
G1 X90.589 Y92.978 E.08544
G1 X91.876 Y93.648 E.09729
G1 X94.692 Y95.897 E.24149
G1 X95.379 Y96.404 E.05722
G1 X96.093 Y96.895 E.05808
G1 X96.823 Y97.36 E.05802
G1 X97.576 Y97.804 E.05857
G1 X98.331 Y98.216 E.05765
G1 X99.106 Y98.604 E.0581
G1 X99.894 Y98.965 E.05808
G1 X100.629 Y99.272 E.05341
G1 X102.38 Y99.9 E.12462
G1 X103.155 Y100.133 E.05428
G1 X103.993 Y100.354 E.05808
G1 X104.838 Y100.546 E.05807
G1 X105.689 Y100.709 E.05808
G1 X106.546 Y100.843 E.05808
G1 X107.406 Y100.947 E.05808
G1 X108.27 Y101.021 E.05809
G1 X109.135 Y101.066 E.05808
G1 X110.001 Y101.081 E.05807
G1 X110.868 Y101.066 E.05807
G1 X111.733 Y101.021 E.05809
G1 X112.597 Y100.947 E.05809
G1 X113.457 Y100.843 E.05807
G1 X114.314 Y100.709 E.0581
G1 X115.165 Y100.546 E.05808
G1 X116.01 Y100.354 E.05806
G1 X116.793 Y100.147 E.05429
G1 X118.563 Y99.581 E.12459
G1 X119.309 Y99.299 E.05344
G1 X120.109 Y98.965 E.05809
G1 X120.882 Y98.611 E.05696
G1 X122.14 Y97.96 E.09495
G1 X123.215 Y97.338 E.08323
G1 X123.91 Y96.895 E.05522
G1 X124.624 Y96.404 E.05811
G1 X125.321 Y95.889 E.05806
G1 X125.998 Y95.352 E.0579
G1 X127.564 Y94.038 E.13703
G1 X128.953 Y93.189 E.10909
G1 X130.361 Y92.635 E.1014
G1 X131.97 Y92.286 E.11037
G1 X134.968 Y92.353 E.20096
G1 X136.459 Y92.711 E.10278
G1 X137.855 Y93.299 E.10154
G1 X139.686 Y94.549 E.14852
G1 X147.361 Y102.32 E.73199
G1 X148.464 Y104.196 E.14584
G1 X149.097 Y106.218 E.14205
G1 X149.256 Y108.012 E.12071
G1 X149.03 Y110.454 E.16432
G1 X148.593 Y111.864 E.09891
G1 X147.932 Y113.222 E.10126
G1 X146.638 Y114.925 E.14332
G1 X144.232 Y117.048 E.21506
G1 X143.21 Y117.876 E.08813
G1 X142.173 Y118.676 E.08779
G1 X141.111 Y119.454 E.08824
G1 X140.035 Y120.202 E.0878
G1 X138.942 Y120.924 E.08779
G1 X137.826 Y121.622 E.08823
G1 X136.694 Y122.291 E.08816
G1 X135.571 Y122.919 E.08624
G1 X134.437 Y123.518 E.08589
G1 X133.212 Y124.127 E.0917
G1 X131.87 Y124.749 E.09917
G1 X130.566 Y125.284 E.09445
G1 X128.606 Y125.969 E.13912
G1 X123.039 Y127.77 E.39216
G1 X121.653 Y128.136 E.09603
G1 X120.331 Y128.413 E.09059
G1 X119.043 Y128.65 E.08775
G1 X117.747 Y128.856 E.08796
G1 X116.44 Y129.031 E.08838
G1 X115.151 Y129.171 E.08688
G1 X113.888 Y129.278 E.08495
G1 X112.616 Y129.355 E.08543
G1 X111.312 Y129.403 E.08741
G1 X110.021 Y129.419 E.08653
G1 X108.675 Y129.403 E.0902
G1 X107.394 Y129.356 E.08593
G1 X106.129 Y129.279 E.08494
G1 X104.838 Y129.17 E.08684
G1 X103.541 Y129.028 E.08741
G1 X102.228 Y128.852 E.08884
G1 X100.96 Y128.65 E.08605
G1 X99.698 Y128.418 E.08598
G1 X98.363 Y128.139 E.09136
G1 X97.016 Y127.784 E.09341
G1 X91.31 Y125.941 E.40183
G1 X90.149 Y125.546 E.0822
G1 X89.103 Y125.154 E.07485
G1 X87.961 Y124.672 E.08311
G1 X86.758 Y124.111 E.08892
G1 X85.586 Y123.528 E.08772
G1 X84.442 Y122.924 E.08674
G1 X83.323 Y122.299 E.08586
G1 X82.172 Y121.618 E.08966
G1 X81.079 Y120.935 E.08637
G1 X79.992 Y120.218 E.08727
