; generated by PrusaSlicer 2.5.0+MacOS-arm64 on 2023-06-09 at 14:26:12 UTC

; 

; external perimeters extrusion width = 0.63mm
; perimeters extrusion width = 0.66mm
; infill extrusion width = 0.66mm
; solid infill extrusion width = 0.66mm
; top infill extrusion width = 0.60mm
; first layer extrusion width = 0.63mm

M201 X500 Y500 Z100 E5000 ; sets maximum accelerations, mm/sec^2
M203 X500 Y500 Z10 E60 ; sets maximum feedrates, mm / sec
M204 P500 R1000 T500 ; sets acceleration (P, T) and retract acceleration (R), mm/sec^2
M205 X8.00 Y8.00 Z0.40 E5.00 ; sets the jerk limits, mm/sec
M205 S0 T0 ; sets the minimum extruding and travel feed rate, mm/sec
M107
;TYPE:Custom
G90 ; use absolute coordinates
M83 ; extruder relative mode
M104 S150 ; set temporary nozzle temp to prevent oozing during homing
M140 S95 ; set final bed temp
G4 S30 ; allow partial nozzle warmup
G28 ; home all axis
G1 Z50 F240
G1 X2.0 Y10 F3000
M104 S240 ; set final nozzle temp
M190 S95 ; wait for bed temp to stabilize
M109 S240 ; wait for nozzle temp to stabilize
G1 Z0.28 F240
G92 E0
G1 X2.0 Y140 E10 F1500 ; prime the nozzle
G1 X2.3 Y140 F5000
G92 E0
G1 X2.3 Y10 E10 F1200 ; prime the nozzle
G92 E0
G21 ; set units to millimeters
G90 ; use absolute coordinates
M83 ; use relative distances for extrusion
; Filament gcode
M107
;LAYER_CHANGE
;Z:0.3
;HEIGHT:0.3
;BEFORE_LAYER_CHANGE
G92 E0
;0.3


G1 E-5 F3600
G1 Z.1 F9000
;AFTER_LAYER_CHANGE
;0.3
G1 X95.871 Y87.914
G1 E5 F2400
M204 S500
;TYPE:Skirt/Brim
;WIDTH:0.63
G1 F1200
G1 X97.073 Y86.931 E.10407
G1 X98.58 Y86.059 E.11667
G1 X99.978 Y85.51 E.10069
G1 X101.663 Y85.118 E.11597
G1 X103.551 Y84.989 E.1268
G1 X124.132 Y86.762 E1.38442
G1 X125.721 Y87.297 E.1124
G1 X126.552 Y88.022 E.07391
G1 X129.214 Y91.195 E.2776
G1 X129.96 Y92.697 E.1124
G1 X130.035 Y93.798 E.07393
G1 X129.364 Y101.463 E.51565
G1 X128.685 Y103.264 E.12903
G1 X109.109 Y129.889 E2.2148
G1 X108.544 Y130.495 E.05556
G1 X105.408 Y133.157 E.27566
G1 X103.91 Y133.911 E.1124
G1 X102.921 Y133.999 E.06653
G1 X99.526 Y133.826 E.22784
G1 X97.65 Y133.629 E.12641
G1 X95.206 Y133.156 E.16687
G1 X93.68 Y132.46 E.1124
G1 X93.028 Y131.792 E.06251
G1 X90.714 Y128.701 E.25884
G1 X90.053 Y127.159 E.1124
G1 X90.017 Y126.246 E.06126
G1 X92.91 Y93.915 E2.17545
G1 X93.301 Y92.018 E.12982
G1 X93.842 Y90.664 E.09774
G1 X94.703 Y89.246 E.1112
G1 X95.812 Y87.982 E.11267
G1 E-3.5 F3600
;WIPE_START
G1 F7200
G1 X97.073 Y86.931 E-.77979
G1 X98.249 Y86.251 E-.64521
;WIPE_END
G1 E-.075 F3600
G1 X98.766 Y91.13 F9000
G1 E5 F2400
G1 F1200
G1 X99.719 Y90.365 E.08189
G1 X100.685 Y89.854 E.07323
G1 X101.663 Y89.524 E.06915
G1 X102.718 Y89.344 E.07174
G1 X103.832 Y89.327 E.07469
G1 X122.203 Y90.933 E1.2359
G1 X123.054 Y91.181 E.05942
G1 X123.537 Y91.433 E.03647
G1 X123.993 Y91.758 E.03761
G1 X124.888 Y92.764 E.09019
G1 X125.262 Y93.405 E.04976
G1 X125.512 Y94.165 E.05357
G1 X125.592 Y94.981 E.05501
G1 X125.193 Y99.534 E.30626
G1 X125.01 Y100.223 E.04777
G1 X124.691 Y100.874 E.04861
G1 X124.116 Y101.587 E.06139
G1 X123.06 Y102.422 E.09023
G1 X122.591 Y102.649 E.03492
G1 X122.048 Y102.823 E.03818
G1 X121.492 Y102.916 E.03784
G1 X107.749 Y101.763 E.92424
G1 X105.552 Y126.487 E1.66359
G1 X105.371 Y127.009 E.037
G1 X105.132 Y127.478 E.0353
G1 X104.761 Y127.99 E.04236
G1 X103.793 Y128.858 E.08714
G1 X103.078 Y129.262 E.05505
G1 X102.411 Y129.475 E.04688
G1 X101.72 Y129.557 E.04664
G1 X100.554 Y129.499 E.07825
G1 X99.854 Y129.515 E.04694
G1 X98.679 Y129.412 E.07907
G1 X97.152 Y129.097 E.10447
G1 X96.638 Y128.858 E.038
G1 X95.978 Y128.404 E.05372
G1 X95.6 Y128.014 E.03638
G1 X94.88 Y126.995 E.08358
G1 X94.672 Y126.511 E.0353
G1 X94.535 Y126.024 E.03391
G1 X94.46 Y125.42 E.0408
G1 X94.624 Y123.787 E.11
G1 X94.787 Y123.301 E.03434
G1 X95.001 Y122.861 E.03279
G1 X95.106 Y122.698 E.01302
G1 X95.122 Y122.579 E.00807
G1 X95.673 Y116.281 E.42365
G1 X95.488 Y115.666 E.04304
G1 X95.414 Y114.894 E.05196
G1 X96.044 Y107.693 E.48448
G1 X96.251 Y106.946 E.05196
G1 X96.54 Y106.372 E.04306
G1 X97.111 Y99.844 E.43916
G1 X96.926 Y99.228 E.04311
G1 X96.852 Y98.456 E.05198
G1 X97.219 Y94.285 E.28065
G1 X97.344 Y93.601 E.04657
G1 X97.568 Y92.915 E.04837
G1 X97.997 Y92.086 E.06255
G1 X98.71 Y91.2 E.0762
G1 X99.148 Y91.557 F9000
G1 F1200
G1 X100.049 Y90.825 E.07775
G1 X100.926 Y90.367 E.06635
G1 X101.82 Y90.068 E.06316
G1 X102.789 Y89.905 E.06588
G1 X103.797 Y89.892 E.06752
G1 X122.126 Y91.494 E1.23309
G1 X122.817 Y91.696 E.04829
G1 X123.257 Y91.925 E.03319
G1 X123.636 Y92.198 E.03133
G1 X124.443 Y93.115 E.0819
G1 X124.755 Y93.659 E.04204
G1 X124.964 Y94.307 E.04563
G1 X125.026 Y94.958 E.04377
G1 X124.632 Y99.458 E.3028
G1 X124.472 Y100.045 E.04077
G1 X124.199 Y100.594 E.04106
G1 X123.738 Y101.165 E.04919
G1 X122.785 Y101.927 E.0818
G1 X122.364 Y102.13 E.03133
G1 X121.899 Y102.277 E.03266
G1 X121.436 Y102.352 E.03145
G1 X107.235 Y101.151 E.95511
G1 X105.005 Y126.337 E1.69457
G1 X104.857 Y126.771 E.0307
G1 X104.638 Y127.201 E.03233
G1 X104.323 Y127.631 E.03571
G1 X103.441 Y128.415 E.07915
G1 X102.875 Y128.734 E.0435
G1 X102.312 Y128.917 E.03966
G1 X101.723 Y128.991 E.03981
G1 X100.561 Y128.933 E.07799
G1 X99.887 Y128.95 E.04517
G1 X98.743 Y128.85 E.07694
G1 X97.356 Y128.568 E.09488
G1 X96.934 Y128.376 E.03107
G1 X96.36 Y127.986 E.04647
G1 X96.046 Y127.666 E.03007
G1 X95.386 Y126.742 E.07612
G1 X95.212 Y126.339 E.0294
G1 X95.086 Y125.893 E.03106
G1 X95.026 Y125.385 E.03432
G1 X95.171 Y123.935 E.09766
G1 X95.305 Y123.531 E.02851
G1 X95.5 Y123.128 E.02999
G1 X95.65 Y122.905 E.018
G1 X95.684 Y122.639 E.01798
G1 X96.246 Y116.219 E.43197
G1 X96.048 Y115.579 E.0449
G1 X95.98 Y114.916 E.04462
G1 X96.605 Y107.77 E.48078
G1 X96.787 Y107.129 E.04462
G1 X97.093 Y106.533 E.04491
G1 X97.684 Y99.782 E.45424
G1 X97.485 Y99.141 E.04496
G1 X97.418 Y98.478 E.04464
G1 X97.781 Y94.348 E.27787
G1 X97.897 Y93.724 E.04252
G1 X98.098 Y93.115 E.04299
G1 X98.484 Y92.374 E.05604
G1 X99.092 Y91.627 E.06451
G1 X99.526 Y91.979 F9000
G1 F1200
G1 X100.379 Y91.286 E.07365
G1 X101.165 Y90.88 E.05929
G1 X101.975 Y90.612 E.05721
G1 X102.859 Y90.467 E.06004
G1 X103.761 Y90.456 E.06045
G1 X122.049 Y92.055 E1.23031
G1 X122.581 Y92.21 E.03715
G1 X122.976 Y92.416 E.02984
G1 X123.276 Y92.635 E.02488
G1 X123.997 Y93.463 E.07359
G1 X124.247 Y93.908 E.03423
G1 X124.415 Y94.446 E.03777
G1 X124.46 Y94.933 E.03278
G1 X124.071 Y99.382 E.29928
G1 X123.936 Y99.863 E.03354
G1 X123.709 Y100.31 E.03359
G1 X123.359 Y100.745 E.03739
G1 X122.506 Y101.434 E.07349
G1 X122.173 Y101.598 E.02488
G1 X121.75 Y101.731 E.02969
G1 X121.383 Y101.788 E.02488
G1 X107.664 Y100.608 E.92288
G1 X107.237 Y100.609 E.02864
G1 X107.043 Y100.642 E.01318
G1 X106.701 Y100.77 E.02444
G1 X104.458 Y126.19 E1.71027
G1 X104.343 Y126.534 E.02429
G1 X104.145 Y126.922 E.02921
G1 X103.888 Y127.268 E.02888
G1 X103.09 Y127.97 E.07125
G1 X102.669 Y128.206 E.03234
G1 X102.209 Y128.361 E.03254
G1 X101.725 Y128.425 E.03275
G1 X100.567 Y128.367 E.07769
G1 X99.92 Y128.385 E.04338
G1 X98.808 Y128.288 E.07482
G1 X97.556 Y128.038 E.08553
G1 X97.227 Y127.891 E.02418
G1 X96.74 Y127.566 E.03921
G1 X96.491 Y127.316 E.0237
G1 X95.891 Y126.485 E.06866
G1 X95.75 Y126.166 E.02335
G1 X95.637 Y125.763 E.02806
G1 X95.591 Y125.352 E.02771
G1 X95.718 Y124.08 E.08569
G1 X95.822 Y123.76 E.02258
G1 X95.998 Y123.397 E.02702
G1 X96.193 Y123.117 E.02284
G1 X96.247 Y122.7 E.02816
G1 X96.825 Y116.09 E.4447
G1 X96.743 Y115.922 E.01253
G1 X96.606 Y115.488 E.03052
G1 X96.546 Y114.937 E.03715
G1 X97.166 Y107.848 E.47691
G1 X97.321 Y107.316 E.03715
G1 X97.532 Y106.912 E.03052
G1 X97.641 Y106.76 E.01254
G1 X98.263 Y99.653 E.47815
G1 X98.181 Y99.485 E.01256
G1 X98.044 Y99.05 E.03053
G1 X97.984 Y98.499 E.03716
G1 X98.343 Y94.412 E.27498
G1 X98.449 Y93.849 E.03839
G1 X98.627 Y93.317 E.03755
G1 X98.972 Y92.662 E.04963
G1 X99.469 Y92.049 E.05292
G1 X99.906 Y92.407 F9000
G1 F1200
G1 X99.978 Y92.319 E.00761
G1 X100.705 Y91.749 E.06195
G1 X101.4 Y91.394 E.05231
G1 X102.129 Y91.157 E.05139
G1 X102.888 Y91.032 E.05153
G1 X103.726 Y91.021 E.05618
G1 X121.972 Y92.616 E1.22748
G1 X122.344 Y92.725 E.02601
G1 X122.694 Y92.907 E.02639
G1 X122.912 Y93.069 E.0182
G1 X123.547 Y93.807 E.0653
G1 X123.736 Y94.151 E.02629
G1 X123.865 Y94.58 E.03003
G1 X123.895 Y94.908 E.02208
G1 X123.51 Y99.303 E.29567
G1 X123.401 Y99.676 E.02601
G1 X123.221 Y100.023 E.02626
G1 X122.977 Y100.327 E.02606
G1 X122.223 Y100.944 E.06531
G1 X121.98 Y101.065 E.0182
G1 X121.603 Y101.184 E.02651
G1 X121.335 Y101.224 E.01815
G1 X107.688 Y100.042 E.91806
G1 X107.188 Y100.044 E.03345
G1 X106.924 Y100.088 E.01795
G1 X106.72 Y100.149 E.0143
G1 X106.394 Y100.308 E.02426
G1 X106.156 Y100.517 E.02131
G1 X103.91 Y126.047 E1.71755
G1 X103.829 Y126.298 E.01771
G1 X103.653 Y126.642 E.02588
G1 X103.457 Y126.902 E.02183
G1 X102.742 Y127.524 E.06349
G1 X102.46 Y127.68 E.02162
G1 X102.1 Y127.805 E.02558
G1 X101.724 Y127.859 E.0254
G1 X100.572 Y127.801 E.07734
G1 X99.952 Y127.82 E.04156
G1 X98.871 Y127.725 E.07271
G1 X97.751 Y127.507 E.07648
G1 X97.514 Y127.404 E.01733
G1 X97.116 Y127.142 E.03193
G1 X96.933 Y126.962 E.01723
G1 X96.394 Y126.224 E.06124
G1 X96.289 Y125.992 E.01708
G1 X96.189 Y125.635 E.02487
G1 X96.156 Y125.324 E.02093
G1 X96.266 Y124.222 E.07422
G1 X96.341 Y123.987 E.0165
G1 X96.496 Y123.667 E.02384
G1 X96.735 Y123.332 E.02757
G1 X96.809 Y122.761 E.0386
G1 X97.404 Y115.966 E.45713
G1 X97.273 Y115.722 E.01857
G1 X97.154 Y115.344 E.02655
G1 X97.112 Y114.958 E.02601
G1 X97.727 Y107.925 E.47319
G1 X97.836 Y107.552 E.02601
G1 X98.019 Y107.201 E.02655
G1 X98.19 Y106.983 E.01858
G1 X98.842 Y99.529 E.50145
G1 X98.711 Y99.285 E.01859
G1 X98.592 Y98.907 E.02656
G1 X98.55 Y98.521 E.02602
G1 X98.905 Y94.474 E.27223
G1 X98.992 Y94.009 E.03171
G1 X99.155 Y93.52 E.03458
G1 X99.457 Y92.954 E.04298
G1 X99.849 Y92.477 E.04138
G1 X100.282 Y92.837 F9000
G1 F1200
G1 X100.392 Y92.706 E.01144
G1 X101.028 Y92.214 E.0539
G1 X101.633 Y91.91 E.04537
G1 X102.281 Y91.702 E.04561
G1 X102.956 Y91.594 E.04583
G1 X103.691 Y91.586 E.04923
G1 X121.895 Y93.177 E1.2247
G1 X122.108 Y93.24 E.01487
G1 X122.409 Y93.396 E.02277
G1 X122.543 Y93.498 E.01123
G1 X123.097 Y94.151 E.05742
G1 X123.203 Y94.343 E.0147
G1 X123.315 Y94.715 E.02601
G1 X123.329 Y94.883 E.01129
G1 X122.949 Y99.226 E.29223
G1 X122.887 Y99.439 E.01487
G1 X122.732 Y99.738 E.02254
G1 X122.593 Y99.91 E.01481
G1 X121.934 Y100.457 E.05742
G1 X121.785 Y100.534 E.01123
G1 X121.458 Y100.637 E.02301
G1 X121.292 Y100.659 E.01117
G1 X107.711 Y99.477 E.91364
G1 X107.14 Y99.478 E.03827
G1 X106.796 Y99.536 E.02339
G1 X106.514 Y99.62 E.01975
G1 X106.078 Y99.832 E.03249
G1 X105.751 Y100.12 E.02917
G1 X105.638 Y100.297 E.0141
G1 X105.588 Y100.516 E.01502
G1 X103.361 Y125.909 E1.70837
G1 X103.313 Y126.064 E.01091
G1 X103.162 Y126.36 E.02222
G1 X103.03 Y126.53 E.01446
G1 X102.397 Y127.075 E.05597
G1 X102.254 Y127.153 E.01096
G1 X101.94 Y127.262 E.02222
G1 X101.726 Y127.292 E.01452
G1 X100.576 Y127.235 E.07715
G1 X99.984 Y127.255 E.03971
G1 X98.934 Y127.163 E.0706
G1 X97.94 Y126.973 E.06785
G1 X97.796 Y126.913 E.01049
G1 X97.485 Y126.714 E.0247
G1 X97.372 Y126.604 E.01057
G1 X96.893 Y125.958 E.05392
G1 X96.827 Y125.815 E.01054
G1 X96.741 Y125.508 E.02135
G1 X96.722 Y125.302 E.01392
G1 X96.816 Y124.358 E.06353
G1 X96.86 Y124.213 E.0102
G1 X96.996 Y123.932 E.02089
G1 X97.084 Y123.805 E.01038
G1 X97.268 Y123.621 E.01743
G1 X97.371 Y122.822 E.05398
G1 X97.983 Y115.835 E.47009
G1 X97.802 Y115.519 E.02438
G1 X97.702 Y115.201 E.02236
G1 X97.678 Y114.98 E.01487
G1 X98.288 Y108.002 E.46947
G1 X98.35 Y107.789 E.01487
G1 X98.504 Y107.493 E.02236
G1 X98.737 Y107.213 E.02439
G1 X99.421 Y99.397 E.52582
G1 X99.24 Y99.082 E.0244
G1 X99.14 Y98.763 E.02237
G1 X99.116 Y98.542 E.01488
G1 X99.468 Y94.538 E.2694
G1 X99.544 Y94.135 E.02751
G1 X99.683 Y93.726 E.02894
G1 X99.94 Y93.249 E.03634
G1 X100.225 Y92.906 E.02984
G1 X100.656 Y93.27 F9000
G1 F1200
G1 X100.802 Y93.096 E.01525
G1 X101.347 Y92.681 E.04585
G1 X101.862 Y92.428 E.03849
G1 X102.43 Y92.248 E.03991
G1 X103.022 Y92.156 E.04016
G1 X103.655 Y92.15 E.04241
G1 X121.818 Y93.739 E1.22195
G1 X122.164 Y93.919 E.02614
G1 X122.646 Y94.493 E.05022
G1 X122.763 Y94.865 E.02614
G1 X122.388 Y99.149 E.28827
G1 X122.208 Y99.495 E.02614
G1 X121.634 Y99.977 E.05022
G1 X121.317 Y100.088 E.02249
G1 X107.735 Y98.911 E.91368
G1 X107.092 Y98.913 E.04309
G1 X106.668 Y98.984 E.02883
G1 X106.335 Y99.083 E.02327
G1 X106.099 Y99.179 E.01709
G1 X105.748 Y99.37 E.02679
G1 X105.317 Y99.748 E.03842
G1 X105.109 Y100.076 E.026
G1 X105.028 Y100.427 E.02417
G1 X102.81 Y125.783 E1.70581
G1 X102.637 Y126.122 E.02551
G1 X102.087 Y126.602 E.04894
G1 X101.727 Y126.726 E.02551
G1 X100.579 Y126.669 E.07704
G1 X100.015 Y126.69 E.03782
G1 X98.997 Y126.601 E.06848
G1 X98.118 Y126.436 E.05997
G1 X97.806 Y126.241 E.0246
G1 X97.387 Y125.681 E.04694
G1 X97.287 Y125.328 E.02452
G1 X97.368 Y124.483 E.05693
G1 X97.522 Y124.164 E.02376
G1 X97.803 Y123.896 E.02601
G1 X97.934 Y122.883 E.06843
G1 X98.569 Y115.622 E.48849
G1 X98.334 Y115.325 E.02541
G1 X98.244 Y115.002 E.02249
G1 X98.849 Y108.079 E.46574
G1 X98.995 Y107.776 E.02249
G1 X99.278 Y107.524 E.02541
G1 X100.008 Y99.185 E.56104
G1 X99.772 Y98.887 E.02542
G1 X99.682 Y98.564 E.0225
G1 X100.03 Y94.602 E.26654
G1 X100.095 Y94.263 E.02318
G1 X100.208 Y93.935 E.02321
G1 X100.422 Y93.547 E.02968
G1 X100.598 Y93.338 E.01831
G1 X101.025 Y93.705 F9000
G1 F1200
G1 X101.209 Y93.49 E.01902
G1 X101.661 Y93.152 E.03779
G1 X102.087 Y92.947 E.03166
G1 X102.576 Y92.795 E.03432
G1 X103.085 Y92.719 E.03451
G1 X103.618 Y92.715 E.03575
G1 X121.685 Y94.295 E1.21544
G1 X121.785 Y94.347 E.00754
G1 X122.158 Y94.792 E.03895
G1 X122.192 Y94.899 E.00754
G1 X121.832 Y99.016 E.27699
G1 X121.78 Y99.116 E.00754
G1 X121.335 Y99.49 E.03894
G1 X121.227 Y99.523 E.00754
G1 X107.77 Y98.346 E.90534
G1 X107.251 Y98.334 E.03482
G1 X107.013 Y98.353 E.016
G1 X106.54 Y98.432 E.03213
G1 X106.148 Y98.549 E.02744
G1 X105.857 Y98.667 E.02102
G1 X105.466 Y98.879 E.02985
G1 X105.289 Y99.001 E.01438
G1 X104.887 Y99.378 E.03692
G1 X104.666 Y99.7 E.02615
G1 X104.522 Y100.056 E.02576
G1 X104.466 Y100.356 E.02048
G1 X102.254 Y125.651 E1.70175
G1 X102.204 Y125.749 E.00736
G1 X101.777 Y126.121 E.03794
G1 X101.673 Y126.157 E.00736
G1 X100.581 Y126.102 E.07332
G1 X100.045 Y126.125 E.03589
G1 X99.061 Y126.039 E.06626
G1 X98.301 Y125.895 E.05181
G1 X98.212 Y125.839 E.00707
G1 X97.887 Y125.405 E.03636
G1 X97.858 Y125.303 E.00707
G1 X97.924 Y124.612 E.04653
G1 X97.968 Y124.52 E.00684
G1 X98.308 Y124.196 E.03148
G1 X98.387 Y123.839 E.02449
G1 X98.497 Y122.941 E.06064
G1 X99.153 Y115.438 E.50477
G1 X98.848 Y115.074 E.0318
G1 X98.814 Y114.967 E.00754
G1 X99.405 Y108.212 E.45447
G1 X99.457 Y108.112 E.00754
G1 X99.821 Y107.807 E.03181
G1 X100.591 Y99.001 E.59245
G1 X100.286 Y98.637 E.03181
G1 X100.253 Y98.53 E.00754
G1 X100.592 Y94.667 E.25986
G1 X100.645 Y94.394 E.01868
G1 X100.732 Y94.15 E.01738
G1 X100.9 Y93.85 E.02301
G1 X100.966 Y93.773 E.00678
G1 X101.388 Y94.143 F9000
G1 F1200
G1 X101.612 Y93.888 E.02276
G1 X101.971 Y93.626 E.02983
G1 X102.277 Y93.48 E.02268
G1 X102.683 Y93.351 E.02855
G1 X103.148 Y93.281 E.03153
G1 X103.581 Y93.28 E.02904
G1 X121.463 Y94.843 E1.20299
G1 X121.613 Y95.022 E.0157
G1 X121.283 Y98.794 E.25375
G1 X121.104 Y98.945 E.0157
G1 X107.802 Y97.781 E.89493
G1 X107.236 Y97.768 E.03795
G1 X106.944 Y97.791 E.0196
G1 X106.412 Y97.88 E.03615
G1 X105.96 Y98.015 E.0316
G1 X105.615 Y98.155 E.02496
G1 X105.169 Y98.397 E.03401
G1 X104.943 Y98.553 E.01838
G1 X104.58 Y98.874 E.0325
G1 X104.432 Y99.041 E.01495
G1 X104.175 Y99.416 E.03046
G1 X104.062 Y99.652 E.0176
G1 X103.974 Y99.913 E.01843
G1 X103.905 Y100.28 E.02501
G1 X101.705 Y125.434 E1.69226
G1 X101.533 Y125.584 E.01529
G1 X100.581 Y125.536 E.06387
G1 X100.075 Y125.56 E.03392
G1 X99.124 Y125.476 E.06396
G1 X98.567 Y125.37 E.03803
G1 X98.436 Y125.195 E.01462
G1 X98.472 Y124.821 E.02519
G1 X98.625 Y124.676 E.01414
G1 X98.782 Y124.668 E.0106
G1 X98.945 Y123.935 E.05032
G1 X99.059 Y123 E.06313
G1 X99.756 Y115.042 E.53539
G1 X99.544 Y115.023 E.01427
G1 X99.393 Y114.844 E.0157
G1 X99.954 Y108.434 E.43122
