; generated by PrusaSlicer 2.5.0+MacOS-arm64 on 2023-06-09 at 14:54:49 UTC

; 

; external perimeters extrusion width = 0.63mm
; perimeters extrusion width = 0.66mm
; infill extrusion width = 0.66mm
; solid infill extrusion width = 0.66mm
; top infill extrusion width = 0.60mm
; first layer extrusion width = 0.63mm

M201 X500 Y500 Z100 E5000 ; sets maximum accelerations, mm/sec^2
M203 X500 Y500 Z10 E60 ; sets maximum feedrates, mm / sec
M204 P500 R1000 T500 ; sets acceleration (P, T) and retract acceleration (R), mm/sec^2
M205 X8.00 Y8.00 Z0.40 E5.00 ; sets the jerk limits, mm/sec
M205 S0 T0 ; sets the minimum extruding and travel feed rate, mm/sec
M107
;TYPE:Custom
G90 ; use absolute coordinates
M83 ; extruder relative mode
M104 S150 ; set temporary nozzle temp to prevent oozing during homing
M140 S95 ; set final bed temp
G4 S30 ; allow partial nozzle warmup
G28 ; home all axis
G1 Z50 F240
G1 X2.0 Y10 F3000
M104 S240 ; set final nozzle temp
M190 S95 ; wait for bed temp to stabilize
M109 S240 ; wait for nozzle temp to stabilize
G1 Z0.28 F240
G92 E0
G1 X2.0 Y140 E10 F1500 ; prime the nozzle
G1 X2.3 Y140 F5000
G92 E0
G1 X2.3 Y10 E10 F1200 ; prime the nozzle
G92 E0
G21 ; set units to millimeters
G90 ; use absolute coordinates
M83 ; use relative distances for extrusion
; Filament gcode
M107
;LAYER_CHANGE
;Z:0.3
;HEIGHT:0.3
;BEFORE_LAYER_CHANGE
G92 E0
;0.3


G1 E-5 F3600
G1 Z.1 F9000
;AFTER_LAYER_CHANGE
;0.3
G1 X88.923 Y95.163
G1 E5 F2400
M204 S500
;TYPE:Skirt/Brim
;WIDTH:0.63
G1 F1200
G1 X89.66 Y94.537 E.06479
G1 X90.648 Y93.861 E.08024
G1 X91.498 Y93.399 E.0648
G1 X92.541 Y92.963 E.07581
G1 X94.25 Y92.511 E.11844
G1 X96.004 Y92.354 E.11803
G1 X128.464 Y92.354 E2.17548
G1 X130.094 Y92.748 E.1124
G1 X131.429 Y93.938 E.11985
G1 X134.398 Y98.383 E.35823
G1 X134.976 Y99.957 E.1124
G1 X134.728 Y101.728 E.11985
G1 X125.116 Y124.933 E1.68335
G1 X124.128 Y126.288 E.1124
G1 X122.279 Y127.105 E.13543
G1 X116.539 Y127.848 E.38792
G1 X114.667 Y127.585 E.12667
G1 X94.976 Y119.057 E1.43818
G1 X93.886 Y118.427 E.08435
G1 X92.932 Y117.733 E.07909
G1 X92.19 Y117.076 E.0664
G1 X91.248 Y116.049 E.09343
G1 X90.554 Y115.097 E.07891
G1 X86.137 Y108.04 E.55796
G1 X85.593 Y106.149 E.13191
G1 X85.597 Y102.566 E.24011
G1 X85.827 Y100.621 E.13123
G1 X86.405 Y98.779 E.12943
G1 X87.017 Y97.55 E.09199
G1 X87.542 Y96.738 E.06479
G1 X88.247 Y95.854 E.07581
G1 X88.86 Y95.227 E.05876
G1 E-3.5 F3600
;WIPE_START
G1 F7200
G1 X89.66 Y94.537 E-.50179
G1 X90.648 Y93.861 E-.56873
G1 X91.304 Y93.505 E-.35448
;WIPE_END
G1 E-.075 F3600
G1 X91.783 Y98.457 F9000
G1 E5 F2400
G1 F1200
G1 X92.482 Y97.825 E.06318
G1 X93.069 Y97.455 E.04648
G1 X93.709 Y97.143 E.04768
G1 X94.784 Y96.812 E.07541
G1 X95.608 Y96.695 E.0558
G1 X126.607 Y96.696 E2.07754
G1 X127.419 Y96.908 E.05622
G1 X128.209 Y97.328 E.05999
G1 X128.779 Y97.815 E.05023
G1 X129.668 Y99.082 E.10376
G1 X130.055 Y100.154 E.07636
G1 X130.12 Y100.99 E.05617
G1 X129.996 Y101.811 E.05569
G1 X121.961 Y121.253 E1.40988
G1 X121.405 Y122.025 E.06373
G1 X120.654 Y122.64 E.06511
G1 X119.525 Y123.103 E.08177
G1 X117.704 Y123.27 E.12252
G1 X116.971 Y123.115 E.05023
G1 X116.315 Y122.841 E.04764
G1 X115.664 Y122.408 E.05241
G1 X115.473 Y122.222 E.01788
G1 X110.681 Y115.968 E.528
G1 X99.615 Y115.948 E.7416
G1 X98.646 Y115.807 E.06567
G1 X97.768 Y115.557 E.06116
G1 X97.01 Y115.24 E.05511
G1 X96.293 Y114.836 E.05515
G1 X95.389 Y114.146 E.0762
G1 X94.778 Y113.528 E.05825
G1 X94.234 Y112.823 E.05967
G1 X93.86 Y112.202 E.04859
G1 X93.573 Y111.602 E.04457
G1 X93.338 Y110.961 E.04578
G1 X93.162 Y110.282 E.04699
G1 X93.033 Y109.377 E.06123
G1 X93.011 Y108.239 E.07632
G1 X92.187 Y107.896 E.05983
G1 X91.538 Y107.453 E.05263
G1 X90.61 Y106.481 E.09009
G1 X90.288 Y105.944 E.04199
G1 X90.074 Y105.412 E.03843
G1 X89.947 Y104.893 E.03578
G1 X89.978 Y101.949 E.19729
G1 X90.228 Y100.891 E.07287
G1 X90.667 Y99.876 E.07412
G1 X91.032 Y99.292 E.04613
G1 X91.436 Y98.772 E.04418
G1 X91.717 Y98.518 E.02536
G1 X92.093 Y98.934 F9000
G1 F1200
G1 X92.805 Y98.291 E.06428
G1 X93.357 Y97.943 E.04377
G1 X93.935 Y97.662 E.04305
G1 X94.927 Y97.36 E.06952
G1 X95.628 Y97.26 E.04743
G1 X126.568 Y97.262 E2.07357
G1 X127.238 Y97.445 E.04655
G1 X127.871 Y97.782 E.04806
G1 X128.338 Y98.172 E.04081
G1 X129.183 Y99.376 E.09862
G1 X129.495 Y100.241 E.06156
G1 X129.555 Y100.94 E.04703
G1 X129.442 Y101.693 E.05106
G1 X121.451 Y121.004 E1.40064
G1 X120.972 Y121.659 E.05438
G1 X120.332 Y122.174 E.05504
G1 X119.427 Y122.544 E.06554
G1 X117.774 Y122.707 E.11132
G1 X117.163 Y122.582 E.04183
G1 X116.559 Y122.33 E.0438
G1 X116.004 Y121.955 E.04492
G1 X115.911 Y121.863 E.00877
G1 X110.96 Y115.403 E.54546
G1 X99.677 Y115.386 E.75622
G1 X98.747 Y115.25 E.063
G1 X97.941 Y115.019 E.05615
G1 X97.245 Y114.725 E.05064
G1 X96.589 Y114.354 E.05055
G1 X95.75 Y113.71 E.07088
G1 X95.194 Y113.144 E.05314
G1 X94.692 Y112.492 E.05517
G1 X94.365 Y111.946 E.04265
G1 X94.09 Y111.37 E.04276
G1 X93.874 Y110.78 E.04211
G1 X93.714 Y110.157 E.04311
G1 X93.596 Y109.316 E.0569
G1 X93.569 Y107.755 E.10463
G1 X92.955 Y107.61 E.04231
G1 X92.438 Y107.388 E.03767
G1 X91.885 Y107.006 E.04504
G1 X91.043 Y106.117 E.08208
G1 X90.804 Y105.711 E.03155
G1 X90.618 Y105.256 E.03295
G1 X90.505 Y104.793 E.03195
G1 X90.536 Y102.049 E.18392
G1 X90.773 Y101.045 E.06909
G1 X91.158 Y100.157 E.06491
G1 X91.488 Y99.628 E.0418
G1 X91.868 Y99.138 E.04152
G1 X92.027 Y98.994 E.01436
G1 X92.403 Y99.411 F9000
G1 F1200
G1 X93.127 Y98.756 E.06538
G1 X93.645 Y98.43 E.04104
G1 X94.161 Y98.181 E.03839
G1 X95.031 Y97.916 E.06094
G1 X95.649 Y97.826 E.04188
G1 X126.526 Y97.827 E2.06935
G1 X127.05 Y97.979 E.03658
G1 X127.538 Y98.24 E.03708
G1 X127.899 Y98.531 E.0311
G1 X128.698 Y99.67 E.09327
G1 X128.934 Y100.326 E.04669
G1 X128.989 Y100.952 E.04214
G1 X128.889 Y101.569 E.04189
G1 X120.943 Y120.754 E1.39167
G1 X120.543 Y121.288 E.04473
G1 X120.015 Y121.704 E.04508
G1 X119.327 Y121.986 E.04984
G1 X117.839 Y122.144 E.10024
G1 X117.353 Y122.048 E.03322
G1 X116.804 Y121.819 E.03988
G1 X116.345 Y121.5 E.03748
G1 X111.24 Y114.838 E.5625
G1 X99.738 Y114.823 E.77083
G1 X98.848 Y114.693 E.0603
G1 X98.116 Y114.48 E.05111
G1 X97.509 Y114.225 E.04409
G1 X96.885 Y113.872 E.04808
G1 X96.111 Y113.274 E.06551
G1 X95.631 Y112.785 E.04593
G1 X95.168 Y112.185 E.0508
G1 X94.869 Y111.689 E.0388
G1 X94.606 Y111.138 E.04093
G1 X94.418 Y110.624 E.03668
G1 X94.271 Y110.06 E.03906
G1 X94.161 Y109.289 E.05225
G1 X94.137 Y107.892 E.09364
G1 X94.246 Y107.191 E.04749
G1 X93.588 Y107.177 E.04408
G1 X93.152 Y107.079 E.02994
G1 X92.687 Y106.88 E.03393
G1 X92.273 Y106.593 E.0337
G1 X91.511 Y105.798 E.07385
G1 X91.319 Y105.477 E.02505
G1 X91.151 Y105.063 E.02994
G1 X91.063 Y104.697 E.02526
G1 X91.094 Y102.146 E.17094
G1 X91.302 Y101.245 E.06201
G1 X91.65 Y100.436 E.05899
G1 X91.944 Y99.962 E.03736
G1 X92.337 Y99.471 E.04215
G1 X92.73 Y99.872 F9000
G1 F1200
G1 X93.449 Y99.222 E.06499
G1 X93.932 Y98.918 E.03827
G1 X94.385 Y98.701 E.03368
G1 X95.136 Y98.472 E.05259
G1 X95.671 Y98.392 E.03625
G1 X126.483 Y98.393 E2.06502
G1 X126.807 Y98.49 E.02269
G1 X127.245 Y98.724 E.0333
G1 X127.507 Y98.941 E.02276
G1 X128.212 Y99.96 E.08305
G1 X128.376 Y100.417 E.03255
G1 X128.424 Y100.907 E.03298
G1 X128.353 Y101.387 E.03249
G1 X120.435 Y120.501 E1.38661
G1 X120.12 Y120.912 E.03469
G1 X119.702 Y121.232 E.03529
G1 X119.222 Y121.429 E.03475
G1 X117.898 Y121.58 E.08933
G1 X117.541 Y121.514 E.02431
G1 X117.051 Y121.31 E.03563
G1 X116.754 Y121.103 E.02424
G1 X111.671 Y114.471 E.55999
G1 X111.461 Y114.316 E.01751
G1 X111.169 Y114.272 E.01976
G1 X99.76 Y114.257 E.76464
G1 X98.951 Y114.137 E.0548
G1 X98.292 Y113.943 E.04607
G1 X97.746 Y113.711 E.03973
G1 X97.183 Y113.39 E.04346
G1 X96.474 Y112.84 E.06016
G1 X96.068 Y112.425 E.03887
G1 X95.643 Y111.878 E.04645
G1 X95.373 Y111.432 E.03488
G1 X95.122 Y110.907 E.03903
G1 X94.954 Y110.445 E.03296
G1 X94.823 Y109.935 E.03526
G1 X94.723 Y109.227 E.04791
G1 X94.703 Y107.91 E.08829
G1 X94.758 Y107.582 E.02229
G1 X94.923 Y107.156 E.03066
G1 X95.23 Y106.625 E.04104
G1 X93.674 Y106.618 E.10423
G1 X93.349 Y106.548 E.02233
G1 X92.936 Y106.371 E.03008
G1 X92.66 Y106.179 E.02254
G1 X91.976 Y105.475 E.06577
G1 X91.834 Y105.241 E.01833
G1 X91.683 Y104.872 E.02674
G1 X91.622 Y104.604 E.01842
G1 X91.652 Y102.242 E.15835
G1 X91.833 Y101.442 E.05494
G1 X92.143 Y100.715 E.05294
G1 X92.417 Y100.273 E.03484
G1 X92.674 Y99.943 E.02808
G1 X93.119 Y100.293 F9000
G1 F1200
G1 X93.771 Y99.687 E.05964
G1 X94.219 Y99.405 E.03545
G1 X94.608 Y99.221 E.02889
G1 X95.244 Y99.028 E.04453
G1 X95.694 Y98.957 E.03053
G1 X126.369 Y98.948 E2.05583
G1 X126.569 Y99.005 E.01397
G1 X126.95 Y99.208 E.02892
G1 X127.11 Y99.344 E.01404
G1 X127.723 Y100.247 E.07319
G1 X127.816 Y100.507 E.01851
G1 X127.858 Y100.928 E.02833
G1 X127.817 Y101.202 E.01858
G1 X119.927 Y120.25 E1.38179
G1 X119.746 Y120.485 E.01984
G1 X119.387 Y120.76 E.03032
G1 X119.115 Y120.873 E.01977
G1 X117.948 Y121.016 E.0788
G1 X117.727 Y120.979 E.01499
G1 X117.301 Y120.801 E.03095
G1 X117.12 Y120.671 E.01493
G1 X112.098 Y114.098 E.55436
G1 X111.898 Y113.918 E.01803
G1 X111.671 Y113.795 E.01733
G1 X111.427 Y113.726 E.01696
G1 X111.181 Y113.707 E.01658
G1 X99.783 Y113.692 E.76391
G1 X99.057 Y113.581 E.04918
G1 X98.469 Y113.406 E.0411
G1 X98.012 Y113.211 E.03333
G1 X97.48 Y112.909 E.041
G1 X96.863 Y112.43 E.05234
G1 X96.504 Y112.065 E.0343
G1 X96.1 Y111.544 E.0442
G1 X95.878 Y111.176 E.02879
G1 X95.639 Y110.676 E.03713
G1 X95.491 Y110.266 E.02924
G1 X95.381 Y109.84 E.02946
G1 X95.286 Y109.166 E.04562
G1 X95.269 Y107.926 E.0831
G1 X95.296 Y107.758 E.0114
G1 X95.439 Y107.39 E.02653
G1 X95.528 Y107.247 E.01123
G1 X96.136 Y106.625 E.05834
G1 X96.378 Y106.445 E.02017
G1 X96.249 Y106.057 E.02738
G1 X93.755 Y106.057 E.16716
G1 X93.537 Y106.014 E.01493
G1 X93.225 Y105.884 E.02262
G1 X93.041 Y105.76 E.01487
G1 X92.438 Y105.146 E.05769
G1 X92.348 Y105.003 E.0113
G1 X92.217 Y104.683 E.0232
G1 X92.182 Y104.518 E.01132
G1 X92.211 Y102.335 E.14633
G1 X92.365 Y101.637 E.0479
G1 X92.636 Y100.994 E.04675
G1 X92.889 Y100.585 E.03223
G1 X93.063 Y100.363 E.0189
G1 X93.506 Y100.714 F9000
G1 F1200
G1 X93.587 Y100.612 E.00875
G1 X94.129 Y100.126 E.04876
G1 X94.501 Y99.896 E.02933
G1 X94.829 Y99.742 E.02431
G1 X95.355 Y99.583 E.03681
G1 X95.718 Y99.523 E.02469
G1 X126.27 Y99.505 E2.04756
G1 X126.338 Y99.522 E.00468
G1 X126.649 Y99.688 E.02367
G1 X126.701 Y99.735 E.00468
G1 X127.233 Y100.532 E.0642
G1 X127.257 Y100.597 E.00468
G1 X127.291 Y100.949 E.02367
G1 X127.281 Y101.018 E.00468
G1 X119.418 Y120 E1.37698
G1 X119.373 Y120.059 E.005
G1 X119.073 Y120.289 E.02535
G1 X119.004 Y120.317 E.005
G1 X117.98 Y120.45 E.0692
G1 X117.906 Y120.441 E.005
G1 X117.557 Y120.295 E.02535
G1 X117.498 Y120.249 E.005
G1 X112.516 Y113.714 E.55077
G1 X112.227 Y113.452 E.02613
G1 X111.885 Y113.268 E.02603
G1 X111.528 Y113.166 E.02489
G1 X111.203 Y113.141 E.02184
G1 X99.806 Y113.126 E.76384
G1 X99.165 Y113.026 E.04344
G1 X98.649 Y112.869 E.03619
G1 X98.277 Y112.711 E.02705
G1 X97.777 Y112.427 E.03852
G1 X97.252 Y112.018 E.04462
G1 X96.939 Y111.703 E.02977
G1 X96.574 Y111.235 E.03976
G1 X96.382 Y110.919 E.0248
G1 X96.155 Y110.445 E.03519
G1 X96.035 Y110.11 E.02389
G1 X95.938 Y109.743 E.02545
G1 X95.851 Y109.14 E.04083
G1 X95.835 Y107.95 E.07972
G1 X95.982 Y107.585 E.02641
G1 X96.513 Y107.048 E.05063
G1 X96.876 Y106.896 E.02632
G1 X102.112 Y106.896 E.35089
G1 X102.112 Y105.492 E.09413
G1 X93.783 Y105.492 E.55818
G1 X93.468 Y105.372 E.02257
G1 X92.891 Y104.808 E.05413
G1 X92.742 Y104.444 E.02633
G1 X92.77 Y102.425 E.1353
G1 X92.898 Y101.829 E.04089
G1 X93.129 Y101.272 E.0404
G1 X93.361 Y100.897 E.02953
G1 X93.45 Y100.785 E.00962
G1 X93.89 Y101.138 F9000
G1 F1200
G1 X94.014 Y100.984 E.01319
G1 X94.448 Y100.594 E.03912
G1 X94.783 Y100.386 E.02644
G1 X95.047 Y100.264 E.01947
G1 X95.497 Y100.13 E.03145
G1 X95.784 Y100.085 E.01949
G1 X126.164 Y100.071 E2.03608
G1 X126.289 Y100.137 E.0095
G1 X126.704 Y100.758 E.05003
G1 X126.718 Y100.899 E.0095
G1 X118.939 Y119.679 E1.3623
G1 X118.819 Y119.771 E.01017
G1 X118.019 Y119.875 E.05403
G1 X117.879 Y119.817 E.01017
G1 X112.934 Y113.329 E.54669
G1 X112.555 Y112.987 E.03423
G1 X112.099 Y112.741 E.03472
G1 X111.628 Y112.606 E.03283
G1 X111.225 Y112.575 E.02711
G1 X99.83 Y112.561 E.76371
G1 X99.277 Y112.471 E.03755
G1 X98.829 Y112.333 E.03137
G1 X98.542 Y112.211 E.02091
G1 X98.076 Y111.946 E.03595
G1 X97.616 Y111.585 E.0392
G1 X97.374 Y111.34 E.02306
G1 X97.047 Y110.925 E.03542
G1 X96.885 Y110.66 E.02082
G1 X96.683 Y110.24 E.03123
G1 X96.572 Y109.931 E.02199
G1 X96.49 Y109.616 E.02185
G1 X96.417 Y109.113 E.03404
G1 X96.402 Y108.027 E.07277
G1 X96.444 Y107.922 E.00762
G1 X96.856 Y107.505 E.03926
G1 X96.961 Y107.462 E.0076
G1 X102.677 Y107.462 E.38312
G1 X102.677 Y104.926 E.16995
G1 X93.867 Y104.926 E.59043
G1 X93.763 Y104.883 E.00757
G1 X93.352 Y104.469 E.03911
G1 X93.309 Y104.364 E.00757
G1 X93.329 Y102.512 E.12417
G1 X93.432 Y102.017 E.03387
G1 X93.623 Y101.549 E.03386
G1 X93.834 Y101.208 E.0269
G1 X94.303 Y101.524 F9000
G1 F1200
G1 X94.438 Y101.358 E.01434
G1 X94.767 Y101.061 E.0297
G1 X95.065 Y100.877 E.02344
G1 X95.261 Y100.788 E.01443
G1 X95.635 Y100.679 E.02612
G1 X95.846 Y100.647 E.01432
G1 X125.942 Y100.636 E2.01705
G1 X126.11 Y100.888 E.02026
G1 X118.508 Y119.241 E1.33137
G1 X118.184 Y119.283 E.02193
G1 X113.361 Y112.956 E.53322
G1 X113.046 Y112.652 E.02931
G1 X112.879 Y112.524 E.01408
G1 X112.692 Y112.404 E.0149
G1 X112.31 Y112.215 E.02855
G1 X111.893 Y112.083 E.02931
G1 X111.692 Y112.044 E.01375
G1 X111.247 Y112.01 E.02991
G1 X99.895 Y111.998 E.76079
G1 X99.423 Y111.924 E.03202
G1 X99.011 Y111.797 E.02892
G1 X98.781 Y111.698 E.01678
G1 X98.376 Y111.467 E.03124
G1 X97.981 Y111.153 E.0338
G1 X97.807 Y110.977 E.0166
G1 X97.519 Y110.612 E.03117
G1 X97.388 Y110.4 E.01669
G1 X97.199 Y110.008 E.02917
G1 X97.047 Y109.515 E.03461
G1 X96.982 Y109.085 E.0291
G1 X96.97 Y108.195 E.05968
G1 X97.135 Y108.027 E.0158
G1 X103.243 Y108.027 E.40932
G1 X103.243 Y104.36 E.24576
G1 X94.041 Y104.36 E.61667
G1 X93.876 Y104.194 E.01574
G1 X93.889 Y102.594 E.10724
G1 X93.967 Y102.2 E.0269
G1 X94.117 Y101.825 E.02708
G1 X94.256 Y101.601 E.01766
; printing object Corps2.stl id:0 copy 0
G1 E-3.5 F3600
;WIPE_START
G1 F7200
G1 X94.438 Y101.358 E-.14414
G1 X94.767 Y101.061 E-.21048
G1 X95.065 Y100.877 E-.16615
G1 X95.261 Y100.788 E-.1023
G1 X95.635 Y100.679 E-.1851
G1 X95.846 Y100.647 E-.1015
G1 X96.931 Y100.647 E-.51533
;WIPE_END
G1 E-.075 F3600
G1 X105.506 Y103.824 F9000
G1 E5 F2400
;TYPE:Perimeter
;WIDTH:0.63
G1 F1200
G1 X105.458 Y103.491 E.02256
G1 X105.181 Y102.937 E.04154
G1 X122.78 Y102.932 E1.17947
G1 X117.789 Y114.98 E.87401
G1 X115.171 Y111.545 E.28946
G1 X114.915 Y111.269 E.02527
G1 X114.378 Y110.79 E.04821
G1 X114.007 Y110.528 E.03045
G1 X113.375 Y110.184 E.04821
G1 X112.953 Y110.013 E.0305
G1 X111.886 Y109.758 E.07354
G1 X111.261 Y109.715 E.04202
G1 X104.931 Y109.711 E.4242
G1 X105.142 Y109.53 E.01859
G1 X105.458 Y108.897 E.04746
G1 X105.537 Y108.342 E.03752
G1 X105.537 Y104.045 E.28799
G1 X105.519 Y103.913 E.00893
G1 X104.951 Y103.898 F9000
G1 F1200
G1 X104.915 Y103.65 E.01682
G1 X104.689 Y103.197 E.0339
G1 X104.223 Y102.798 E.04112
;WIDTH:0.673291
G1 X104.112 Y102.748 E.00876
;WIDTH:0.716582
G1 X104.001 Y102.699 E.00938
;WIDTH:0.759873
G1 X103.891 Y102.65 E.01001
;WIDTH:0.803164
G1 X103.78 Y102.6 E.01063
;WIDTH:0.846455
G1 X103.669 Y102.551 E.01125
;WIDTH:0.889747
G1 X103.558 Y102.501 E.01187
G1 X103.686 Y102.48 E.01276
;WIDTH:0.846455
G1 X103.815 Y102.458 E.01209
;WIDTH:0.803164
G1 X103.944 Y102.436 E.01142
;WIDTH:0.759873
G1 X104.072 Y102.415 E.01075
;WIDTH:0.716582
G1 X104.201 Y102.393 E.01008
;WIDTH:0.673291
G1 X104.33 Y102.371 E.00941
;WIDTH:0.63
G1 X123.627 Y102.366 E1.29327
G1 X117.936 Y116.105 E.99666
G1 X114.721 Y111.888 E.35536
G1 X114.538 Y111.691 E.01805
G1 X114.002 Y111.211 E.04821
G1 X113.737 Y111.025 E.02175
G1 X113.105 Y110.68 E.04821
G1 X112.803 Y110.559 E.02179
G1 X111.843 Y110.321 E.06631
G1 X111.26 Y110.281 E.03914
G1 X104.395 Y110.276 E.46013
;WIDTH:0.629184
G1 X103.558 Y110.287 E.05602
;WIDTH:0.606533
