; generated by PrusaSlicer 2.5.0+MacOS-arm64 on 2023-06-06 at 11:38:08 UTC

; 

; external perimeters extrusion width = 0.63mm
; perimeters extrusion width = 0.66mm
; infill extrusion width = 0.66mm
; solid infill extrusion width = 0.66mm
; top infill extrusion width = 0.60mm
; first layer extrusion width = 0.63mm

; external perimeters extrusion width = 0.63mm
; perimeters extrusion width = 0.66mm
; infill extrusion width = 0.66mm
; solid infill extrusion width = 0.66mm
; top infill extrusion width = 0.60mm
; first layer extrusion width = 0.63mm

; external perimeters extrusion width = 0.63mm
; perimeters extrusion width = 0.66mm
; infill extrusion width = 0.66mm
; solid infill extrusion width = 0.66mm
; top infill extrusion width = 0.60mm
; first layer extrusion width = 0.63mm

; external perimeters extrusion width = 0.63mm
; perimeters extrusion width = 0.66mm
; infill extrusion width = 0.66mm
; solid infill extrusion width = 0.66mm
; top infill extrusion width = 0.60mm
; first layer extrusion width = 0.63mm

M201 X500 Y500 Z100 E5000 ; sets maximum accelerations, mm/sec^2
M203 X500 Y500 Z10 E60 ; sets maximum feedrates, mm / sec
M204 P500 R1000 T500 ; sets acceleration (P, T) and retract acceleration (R), mm/sec^2
M205 X8.00 Y8.00 Z0.40 E5.00 ; sets the jerk limits, mm/sec
M205 S0 T0 ; sets the minimum extruding and travel feed rate, mm/sec
M107
;TYPE:Custom
G90 ; use absolute coordinates
M83 ; extruder relative mode
M104 S150 ; set temporary nozzle temp to prevent oozing during homing
M140 S95 ; set final bed temp
G4 S30 ; allow partial nozzle warmup
G28 ; home all axis
G1 Z50 F240
G1 X2.0 Y10 F3000
M104 S240 ; set final nozzle temp
M190 S95 ; wait for bed temp to stabilize
M109 S240 ; wait for nozzle temp to stabilize
G1 Z0.28 F240
G92 E0
G1 X2.0 Y140 E10 F1500 ; prime the nozzle
G1 X2.3 Y140 F5000
G92 E0
G1 X2.3 Y10 E10 F1200 ; prime the nozzle
G92 E0
G21 ; set units to millimeters
G90 ; use absolute coordinates
M83 ; use relative distances for extrusion
; Filament gcode
M107
;LAYER_CHANGE
;Z:0.3
;HEIGHT:0.3
;BEFORE_LAYER_CHANGE
G92 E0
;0.3


G1 E-5 F3600
G1 Z.1 F9000
;AFTER_LAYER_CHANGE
;0.3
G1 X89.84 Y93.159
G1 E5 F2400
M204 S500
;TYPE:Skirt/Brim
;WIDTH:0.63
G1 F1200
G1 X101.686 Y81.734 E1.103
G1 X102.519 Y81.007 E.07412
G1 X104.266 Y79.85 E.14037
G1 X105.99 Y79.083 E.12651
G1 X108.018 Y78.559 E.14036
G1 X110.106 Y78.394 E.14038
G1 X112.191 Y78.595 E.14037
G1 X114.209 Y79.155 E.14037
G1 X131.123 Y86.347 E1.23183
G1 X132.247 Y87.106 E.0909
G1 X142.106 Y96.965 E.9344
G1 X142.98 Y98.396 E.1124
G1 X143.15 Y99.486 E.07393
G1 X143.15 Y126.08 E1.78235
G1 X142.756 Y127.71 E.1124
G1 X142.106 Y128.602 E.07393
G1 X129.767 Y140.94 E1.16946
G1 X128.336 Y141.814 E.1124
G1 X126.937 Y141.971 E.09437
G1 X122.056 Y141.538 E.32838
G1 X100.756 Y138.233 E1.44459
G1 X86.669 Y135.413 E.96283
G1 X84.976 Y134.732 E.12231
G1 X84.378 Y134.393 E.04604
G1 X81.607 Y132.379 E.22959
G1 X81.1 Y131.916 E.04604
G1 X79.929 Y130.516 E.1223
G1 X79.071 Y129.084 E.11189
G1 X78.216 Y127.549 E.11772
G1 X77.59 Y125.835 E.12233
G1 X77.441 Y125.164 E.04604
G1 X77.083 Y121.758 E.22958
G1 X77.089 Y121.071 E.04605
G1 X77.323 Y119.341 E.11695
G1 X82.014 Y102.735 E1.15654
G1 X82.655 Y101.119 E.11651
G1 X83.537 Y99.591 E.11818
G1 X84.241 Y98.657 E.07845
G1 X85.096 Y97.734 E.08429
G1 X89.775 Y93.221 E.43567
G1 E-3.5 F3600
;WIPE_START
G1 F7200
G1 X91.934 Y91.139 E-1.425
;WIPE_END
G1 E-.075 F3600
G1 X91.428 Y98.932 F9000
G1 E5 F2400
G1 F1200
G1 X92.211 Y98.759 E.05368
G1 X92.971 Y98.671 E.0513
G1 X93.707 Y98.659 E.04933
G1 X94.445 Y98.717 E.04962
G1 X95.195 Y98.85 E.05108
G1 X95.902 Y99.048 E.0492
G1 X96.607 Y99.322 E.05064
G1 X97.307 Y99.678 E.05265
G1 X97.944 Y100.087 E.05072
G1 X98.513 Y100.536 E.04858
G1 X99.128 Y101.12 E.05686
G1 X99.136 Y99.759 E.09122
G1 X99.246 Y99.122 E.04329
G1 X99.502 Y98.448 E.04835
G1 X99.834 Y97.893 E.04335
G1 X100.722 Y96.961 E.08623
G1 X101.429 Y96.479 E.05737
G1 X102.07 Y96.216 E.04646
G1 X102.668 Y96.086 E.04102
G1 X104.73 Y96.082 E.13817
G1 X103.837 Y95.012 E.09337
G1 X103.413 Y94.38 E.05102
G1 X103.065 Y93.737 E.04898
G1 X102.79 Y93.089 E.04719
G1 X102.56 Y92.362 E.05109
G1 X102.397 Y91.577 E.05377
G1 X102.32 Y90.827 E.05048
G1 X102.312 Y90.162 E.04462
G1 X102.37 Y89.432 E.04905
G1 X102.5 Y88.703 E.04961
G1 X102.723 Y87.919 E.05467
G1 X102.991 Y87.241 E.04881
G1 X103.327 Y86.584 E.04951
G1 X103.722 Y85.966 E.04915
G1 X104.188 Y85.372 E.05061
G1 X104.725 Y84.811 E.05203
G1 X105.34 Y84.29 E.05404
G1 X105.901 Y83.901 E.04573
G1 X106.492 Y83.564 E.04562
G1 X107.229 Y83.234 E.05408
G1 X107.982 Y82.987 E.0531
G1 X108.763 Y82.818 E.0536
G1 X109.523 Y82.732 E.05124
G1 X110.285 Y82.723 E.05106
G1 X110.971 Y82.779 E.04615
G1 X111.695 Y82.907 E.04926
G1 X112.456 Y83.12 E.05293
G1 X113.159 Y83.396 E.05067
G1 X113.809 Y83.727 E.04887
G1 X114.469 Y84.149 E.05251
G1 X115.036 Y84.596 E.04841
G1 X115.558 Y85.092 E.04825
G1 X116.089 Y85.71 E.05459
G1 X116.537 Y86.356 E.05265
G1 X116.903 Y87.015 E.05054
G1 X117.195 Y87.688 E.04917
G1 X117.431 Y88.424 E.05177
G1 X117.593 Y89.181 E.05194
G1 X117.68 Y89.99 E.0545
G1 X117.688 Y90.659 E.04482
G1 X117.629 Y91.39 E.04916
G1 X117.487 Y92.173 E.05336
G1 X117.284 Y92.879 E.04919
G1 X117.013 Y93.568 E.04968
G1 X116.659 Y94.259 E.05199
G1 X116.245 Y94.9 E.05118
G1 X115.786 Y95.478 E.04943
G1 X115.235 Y96.045 E.053
G1 X114.503 Y96.661 E.0641
G1 X115.567 Y97.71 E.1002
G1 X115.98 Y98.317 E.04916
G1 X116.243 Y98.925 E.0444
G1 X116.45 Y99.833 E.0624
G1 X125.062 Y91.229 E.81583
G1 X125.71 Y90.797 E.05222
G1 X126.403 Y90.518 E.05004
G1 X127.011 Y90.398 E.04159
G1 X128.298 Y90.398 E.08624
G1 X128.958 Y90.534 E.04519
G1 X129.605 Y90.799 E.04685
G1 X130.293 Y91.266 E.05569
G1 X137.947 Y98.92 E.7255
G1 X138.386 Y99.556 E.05178
G1 X138.693 Y100.303 E.05414
G1 X138.815 Y100.918 E.04201
G1 X138.79 Y102.406 E.09974
G1 X138.648 Y102.954 E.0379
G1 X138.44 Y103.456 E.03643
G1 X138.058 Y104.058 E.0478
G1 X129.113 Y113.028 E.84899
G1 X129.592 Y113.244 E.03525
G1 X130.247 Y113.68 E.05271
G1 X138.019 Y121.46 E.73701
G1 X138.44 Y122.109 E.05188
G1 X138.648 Y122.613 E.03652
G1 X138.79 Y123.16 E.0379
G1 X138.815 Y124.649 E.09976
G1 X138.646 Y125.413 E.05244
G1 X138.357 Y126.063 E.04769
G1 X137.947 Y126.646 E.04777
G1 X127.954 Y136.639 E.94714
G1 X127.222 Y137.119 E.05869
G1 X126.386 Y137.42 E.05957
G1 X125.57 Y137.508 E.05496
G1 X124.394 Y137.408 E.0791
G1 X123.576 Y137.159 E.05731
G1 X122.861 Y136.746 E.05538
G1 X122.355 Y136.295 E.0454
G1 X121.265 Y134.813 E.12331
G1 X120.804 Y134.234 E.04962
G1 X120.617 Y134.035 E.01829
G1 X120.227 Y133.687 E.03501
G1 X119.74 Y133.148 E.0487
G1 X119.138 Y132.526 E.05798
G1 X118.516 Y131.925 E.058
G1 X117.978 Y131.437 E.0487
G1 X117.629 Y131.048 E.03501
G1 X117.43 Y130.86 E.01832
G1 X116.454 Y130.087 E.08343
G1 X116.285 Y130.958 E.05946
G1 X116.02 Y131.622 E.0479
G1 X115.631 Y132.233 E.04852
G1 X114.824 Y133.06 E.07748
G1 X114.183 Y133.506 E.05237
G1 X113.529 Y133.786 E.04766
G1 X112.82 Y133.939 E.04858
G1 X102.818 Y133.947 E.67036
G1 X102.173 Y133.834 E.04385
G1 X101.506 Y133.578 E.04789
G1 X100.847 Y133.164 E.05217
G1 X99.982 Y132.31 E.08145
G1 X99.575 Y131.714 E.04841
G1 X99.29 Y131.045 E.04873
G1 X99.137 Y130.278 E.05239
G1 X99.13 Y127.953 E.15586
G1 X98.524 Y128.527 E.05595
G1 X98.288 Y128.834 E.02595
G1 X97.791 Y129.296 E.04551
G1 X97.09 Y129.866 E.06049
G1 X96.321 Y130.378 E.06192
G1 X95.647 Y130.76 E.05193
G1 X95.234 Y130.911 E.0295
G1 X94.927 Y131.082 E.02351
G1 X94.155 Y131.346 E.05472
G1 X93.279 Y131.573 E.06062
G1 X92.461 Y131.707 E.05556
G1 X91.694 Y131.781 E.05164
G1 X91.255 Y131.748 E.0295
G1 X90.72 Y131.782 E.03596
G1 X89.683 Y131.651 E.07005
G1 X88.66 Y131.425 E.07017
G1 X87.741 Y131.136 E.06456
G1 X87.303 Y130.905 E.03324
G1 X86.855 Y130.743 E.03192
G1 X85.75 Y130.073 E.08659
G1 X85.006 Y129.511 E.06248
G1 X84.323 Y128.906 E.06112
G1 X84.012 Y128.509 E.03382
G1 X83.625 Y128.13 E.03633
G1 X83.001 Y127.227 E.07351
G1 X82.513 Y126.361 E.06669
G1 X82.112 Y125.484 E.06458
G1 X81.987 Y124.988 E.0343
G1 X81.805 Y124.548 E.03191
G1 X81.54 Y123.052 E.1018
G1 X81.47 Y121.596 E.09774
G1 X81.565 Y120.996 E.0407
G1 X81.579 Y120.547 E.03013
G1 X81.731 Y119.8 E.05105
G1 X81.985 Y118.89 E.06335
G1 X82.31 Y118.048 E.06048
G1 X82.588 Y117.448 E.0443
G1 X82.824 Y117.099 E.02822
G1 X82.989 Y116.75 E.02588
G1 X83.379 Y116.196 E.04542
G1 X83.916 Y115.527 E.0575
G1 X84.492 Y114.925 E.05581
G1 X85.13 Y114.345 E.05783
G1 X85.55 Y114.084 E.0331
G1 X85.965 Y113.739 E.03619
G1 X86.87 Y113.243 E.06916
G1 X87.671 Y112.883 E.05885
G1 X88.781 Y112.493 E.07888
G1 X87.823 Y111.566 E.08934
G1 X87.309 Y110.947 E.05392
G1 X86.871 Y110.292 E.05278
G1 X86.54 Y109.675 E.04694
G1 X86.274 Y109.054 E.04526
G1 X86.035 Y108.302 E.05294
G1 X85.871 Y107.514 E.05391
G1 X85.794 Y106.765 E.0505
G1 X85.786 Y106.099 E.04462
G1 X85.844 Y105.369 E.04907
G1 X85.987 Y104.582 E.05359
G1 X86.197 Y103.855 E.05074
G1 X86.454 Y103.203 E.04695
G1 X86.787 Y102.546 E.04936
G1 X87.179 Y101.927 E.04909
G1 X87.661 Y101.31 E.05253
G1 X88.218 Y100.731 E.05382
G1 X88.789 Y100.246 E.05025
G1 X89.35 Y99.854 E.04584
G1 X89.964 Y99.502 E.04744
G1 X90.676 Y99.182 E.05232
G1 X91.343 Y98.96 E.0471
G1 X91.52 Y99.497 F9000
G1 F1200
G1 X92.317 Y99.315 E.05477
G1 X93.021 Y99.235 E.04748
G1 X93.702 Y99.224 E.04567
G1 X94.361 Y99.276 E.04428
G1 X95.057 Y99.399 E.04741
G1 X95.712 Y99.581 E.04552
G1 X96.364 Y99.833 E.04687
G1 X97.014 Y100.162 E.04885
G1 X97.604 Y100.54 E.04695
G1 X98.151 Y100.971 E.04664
G1 X98.669 Y101.469 E.04814
G1 X99.697 Y102.714 E.10828
G1 X99.697 Y99.83 E.19329
G1 X99.798 Y99.247 E.03965
G1 X100.021 Y98.675 E.04118
G1 X100.266 Y98.259 E.03235
G1 X101.109 Y97.375 E.08188
G1 X101.718 Y96.965 E.04921
G1 X102.219 Y96.762 E.03621
G1 X102.702 Y96.652 E.03323
G1 X105.798 Y96.645 E.20744
G1 X105.929 Y96.266 E.0269
G1 X105.304 Y95.77 E.05346
G1 X104.795 Y95.277 E.04751
G1 X104.298 Y94.683 E.0519
G1 X103.903 Y94.098 E.0473
G1 X103.58 Y93.502 E.04542
G1 X103.325 Y92.905 E.04352
G1 X103.104 Y92.205 E.04919
G1 X102.958 Y91.504 E.04798
G1 X102.884 Y90.782 E.04866
G1 X102.877 Y90.193 E.0395
G1 X102.93 Y89.517 E.04542
G1 X103.054 Y88.816 E.0477
G1 X103.255 Y88.113 E.04903
G1 X103.501 Y87.485 E.04517
G1 X103.811 Y86.876 E.0458
G1 X104.191 Y86.282 E.04725
G1 X104.623 Y85.733 E.04685
G1 X105.123 Y85.214 E.04828
G1 X105.674 Y84.747 E.04841
G1 X106.212 Y84.373 E.04394
G1 X106.76 Y84.063 E.04216
G1 X107.42 Y83.766 E.04852
G1 X108.117 Y83.536 E.04921
G1 X108.842 Y83.378 E.04972
G1 X109.545 Y83.298 E.04743
G1 X110.253 Y83.288 E.04745
G1 X110.887 Y83.339 E.04258
G1 X111.583 Y83.461 E.04741
G1 X112.263 Y83.652 E.04731
G1 X112.915 Y83.907 E.04694
G1 X113.54 Y84.225 E.04699
G1 X114.131 Y84.603 E.04698
G1 X114.657 Y85.016 E.04481
G1 X115.158 Y85.493 E.04639
G1 X115.634 Y86.045 E.04885
G1 X116.05 Y86.644 E.04885
G1 X116.39 Y87.254 E.04684
G1 X116.66 Y87.875 E.0454
G1 X116.888 Y88.583 E.04982
G1 X117.037 Y89.284 E.04802
G1 X117.116 Y90.036 E.05068
G1 X117.123 Y90.626 E.03958
G1 X117.067 Y91.33 E.04734
G1 X116.939 Y92.031 E.0477
G1 X116.745 Y92.709 E.04731
G1 X116.492 Y93.348 E.04601
G1 X116.176 Y93.965 E.04647
G1 X115.793 Y94.56 E.04741
G1 X115.352 Y95.114 E.0475
G1 X114.84 Y95.64 E.04915
G1 X114.297 Y96.095 E.04753
G1 X113.395 Y96.706 E.07301
G1 X114.327 Y97.281 E.07341
G1 X115.149 Y98.092 E.07742
G1 X115.494 Y98.608 E.04155
G1 X115.711 Y99.119 E.03724
G1 X115.839 Y99.712 E.04068
G1 X115.853 Y101.23 E.10172
G1 X125.399 Y91.684 E.90474
G1 X125.999 Y91.284 E.04835
G1 X126.543 Y91.067 E.03923
G1 X127.041 Y90.963 E.03415
G1 X128.269 Y90.963 E.08226
G1 X128.768 Y91.067 E.03415
G1 X129.363 Y91.311 E.04313
G1 X129.911 Y91.684 E.04446
G1 X137.528 Y99.301 E.72189
G1 X137.901 Y99.849 E.04446
G1 X138.145 Y100.445 E.04312
G1 X138.249 Y100.944 E.03421
G1 X138.233 Y102.301 E.09094
G1 X138.118 Y102.757 E.0315
G1 X137.928 Y103.215 E.03326
G1 X137.599 Y103.726 E.04069
G1 X127.998 Y113.343 E.91079
G1 X128.809 Y113.532 E.05584
G1 X129.31 Y113.735 E.03624
G1 X129.868 Y114.101 E.04469
G1 X137.562 Y121.795 E.72927
G1 X137.928 Y122.351 E.04458
G1 X138.118 Y122.81 E.03326
G1 X138.233 Y123.265 E.0315
G1 X138.249 Y124.621 E.09087
G1 X138.116 Y125.212 E.04058
G1 X137.875 Y125.765 E.04043
G1 X137.529 Y126.265 E.04077
G1 X127.576 Y136.217 E.94331
G1 X126.945 Y136.625 E.05036
G1 X126.231 Y136.875 E.05069
G1 X125.592 Y136.943 E.04307
G1 X124.472 Y136.847 E.07534
G1 X123.828 Y136.651 E.04515
G1 X123.209 Y136.3 E.04764
G1 X122.791 Y135.935 E.03721
G1 X121.715 Y134.469 E.12189
G1 X121.232 Y133.863 E.05193
G1 X121.011 Y133.629 E.02157
G1 X120.636 Y133.296 E.03361
G1 X120.153 Y132.762 E.04827
G1 X119.538 Y132.126 E.05924
G1 X118.903 Y131.512 E.05925
G1 X118.369 Y131.028 E.04827
G1 X118.036 Y130.653 E.03361
G1 X117.801 Y130.433 E.02157
G1 X117.199 Y129.953 E.0516
G1 X115.849 Y128.978 E.11164
G1 X115.846 Y130.241 E.08463
G1 X115.748 Y130.78 E.03674
G1 X115.526 Y131.346 E.04075
G1 X115.204 Y131.86 E.04063
G1 X114.438 Y132.646 E.07358
G1 X113.93 Y133 E.04147
G1 X113.376 Y133.241 E.04048
G1 X112.787 Y133.374 E.04047
G1 X102.844 Y133.382 E.66641
G1 X102.303 Y133.283 E.03683
G1 X101.737 Y133.062 E.04074
G1 X101.222 Y132.739 E.04072
G1 X100.399 Y131.927 E.07752
G1 X100.082 Y131.463 E.03764
G1 X99.839 Y130.903 E.0409
G1 X99.697 Y130.195 E.0484
G1 X99.697 Y126.686 E.23519
G1 X99.293 Y126.565 E.02826
G1 X98.754 Y127.389 E.06599
G1 X98.389 Y127.875 E.04076
G1 X98.098 Y128.151 E.02681
G1 X97.883 Y128.439 E.02411
G1 X97.427 Y128.864 E.04178
G1 X96.744 Y129.418 E.05892
G1 X96.017 Y129.901 E.0585
G1 X95.391 Y130.254 E.04818
G1 X95.001 Y130.393 E.02776
G1 X94.676 Y130.575 E.02496
G1 X93.985 Y130.806 E.04882
G1 X93.175 Y131.017 E.0561
G1 X92.379 Y131.147 E.05404
G1 X91.667 Y131.215 E.04793
G1 X91.258 Y131.181 E.02751
G1 X90.761 Y131.217 E.03338
G1 X89.767 Y131.091 E.0672
G1 X88.818 Y130.881 E.06512
G1 X87.938 Y130.605 E.06181
G1 X87.532 Y130.385 E.03098
G1 X87.12 Y130.242 E.02919
G1 X86.078 Y129.613 E.08158
G1 X85.373 Y129.08 E.05925
G1 X84.72 Y128.502 E.05844
G1 X84.435 Y128.13 E.03138
G1 X84.073 Y127.783 E.03364
G1 X83.487 Y126.938 E.06892
G1 X83.022 Y126.114 E.06339
G1 X82.638 Y125.275 E.06183
G1 X82.527 Y124.814 E.0318
G1 X82.339 Y124.361 E.03289
G1 X82.104 Y123.008 E.09201
G1 X82.036 Y121.601 E.09443
G1 X82.13 Y121.05 E.03744
G1 X82.139 Y120.632 E.02799
G1 X82.278 Y119.942 E.04718
G1 X82.526 Y119.056 E.06171
G1 X82.834 Y118.261 E.05709
G1 X83.09 Y117.71 E.04077
G1 X83.317 Y117.38 E.02684
G1 X83.468 Y117.053 E.02412
G1 X83.826 Y116.543 E.04174
G1 X84.35 Y115.891 E.05603
G1 X84.893 Y115.324 E.05268
G1 X85.489 Y114.783 E.05395
G1 X85.881 Y114.544 E.03076
G1 X86.264 Y114.221 E.03356
G1 X87.132 Y113.744 E.06638
G1 X87.891 Y113.405 E.05572
G1 X88.85 Y113.068 E.06813
G1 X89.352 Y113 E.03391
G1 X90.229 Y112.726 E.06157
G1 X89.327 Y112.142 E.07202
G1 X88.799 Y111.726 E.04504
G1 X88.248 Y111.192 E.05143
G1 X87.77 Y110.619 E.04997
G1 X87.362 Y110.011 E.04906
G1 X87.054 Y109.44 E.0435
G1 X86.809 Y108.868 E.0417
G1 X86.585 Y108.171 E.04909
G1 X86.432 Y107.441 E.04996
G1 X86.358 Y106.719 E.04864
G1 X86.351 Y106.13 E.0395
G1 X86.404 Y105.455 E.0454
G1 X86.535 Y104.725 E.04969
G1 X86.737 Y104.025 E.04886
G1 X86.965 Y103.446 E.04169
G1 X87.272 Y102.837 E.04572
G1 X87.649 Y102.242 E.04717
G1 X88.097 Y101.67 E.04871
G1 X88.595 Y101.152 E.04817
G1 X89.125 Y100.701 E.04659
G1 X89.663 Y100.325 E.04403
G1 X90.232 Y100.001 E.04389
G1 X90.894 Y99.704 E.04861
G1 X91.435 Y99.525 E.03817
G1 X91.613 Y100.061 F9000
G1 F1200
G1 X92.396 Y99.875 E.05394
G1 X93.07 Y99.798 E.0455
G1 X93.696 Y99.79 E.04196
G1 X94.276 Y99.836 E.03898
G1 X94.945 Y99.953 E.04553
G1 X95.545 Y100.121 E.04175
G1 X96.146 Y100.355 E.04317
G1 X96.745 Y100.66 E.04509
G1 X97.266 Y100.993 E.04144
G1 X97.77 Y101.389 E.04295
G1 X98.25 Y101.849 E.04458
G1 X98.652 Y102.318 E.04141
G1 X99.023 Y102.846 E.04324
G1 X99.352 Y103.432 E.04499
G1 X99.601 Y104.001 E.04165
G1 X99.786 Y104.569 E.04003
G1 X100.263 Y104.493 E.03236
G1 X100.263 Y99.854 E.31094
G1 X100.336 Y99.425 E.02912
G1 X100.539 Y98.903 E.03754
G1 X100.733 Y98.579 E.02533
