; generated by PrusaSlicer 2.5.0+MacOS-arm64 on 2023-06-06 at 11:39:20 UTC

; 

; external perimeters extrusion width = 0.63mm
; perimeters extrusion width = 0.66mm
; infill extrusion width = 0.66mm
; solid infill extrusion width = 0.66mm
; top infill extrusion width = 0.60mm
; first layer extrusion width = 0.63mm

; external perimeters extrusion width = 0.63mm
; perimeters extrusion width = 0.66mm
; infill extrusion width = 0.66mm
; solid infill extrusion width = 0.66mm
; top infill extrusion width = 0.60mm
; first layer extrusion width = 0.63mm

; external perimeters extrusion width = 0.63mm
; perimeters extrusion width = 0.66mm
; infill extrusion width = 0.66mm
; solid infill extrusion width = 0.66mm
; top infill extrusion width = 0.60mm
; first layer extrusion width = 0.63mm

; external perimeters extrusion width = 0.63mm
; perimeters extrusion width = 0.66mm
; infill extrusion width = 0.66mm
; solid infill extrusion width = 0.66mm
; top infill extrusion width = 0.60mm
; first layer extrusion width = 0.63mm

; external perimeters extrusion width = 0.63mm
; perimeters extrusion width = 0.66mm
; infill extrusion width = 0.66mm
; solid infill extrusion width = 0.66mm
; top infill extrusion width = 0.60mm
; first layer extrusion width = 0.63mm

M201 X500 Y500 Z100 E5000 ; sets maximum accelerations, mm/sec^2
M203 X500 Y500 Z10 E60 ; sets maximum feedrates, mm / sec
M204 P500 R1000 T500 ; sets acceleration (P, T) and retract acceleration (R), mm/sec^2
M205 X8.00 Y8.00 Z0.40 E5.00 ; sets the jerk limits, mm/sec
M205 S0 T0 ; sets the minimum extruding and travel feed rate, mm/sec
M107
;TYPE:Custom
G90 ; use absolute coordinates
M83 ; extruder relative mode
M104 S150 ; set temporary nozzle temp to prevent oozing during homing
M140 S95 ; set final bed temp
G4 S30 ; allow partial nozzle warmup
G28 ; home all axis
G1 Z50 F240
G1 X2.0 Y10 F3000
M104 S240 ; set final nozzle temp
M190 S95 ; wait for bed temp to stabilize
M109 S240 ; wait for nozzle temp to stabilize
G1 Z0.28 F240
G92 E0
G1 X2.0 Y140 E10 F1500 ; prime the nozzle
G1 X2.3 Y140 F5000
G92 E0
G1 X2.3 Y10 E10 F1200 ; prime the nozzle
G92 E0
G21 ; set units to millimeters
G90 ; use absolute coordinates
M83 ; use relative distances for extrusion
; Filament gcode
M107
;LAYER_CHANGE
;Z:0.3
;HEIGHT:0.3
;BEFORE_LAYER_CHANGE
G92 E0
;0.3


G1 E-5 F3600
G1 Z.1 F9000
;AFTER_LAYER_CHANGE
;0.3
G1 X79.57 Y89.221
G1 E5 F2400
M204 S500
;TYPE:Skirt/Brim
;WIDTH:0.63
G1 F1200
G1 X108.211 Y63.679 E2.57193
G1 X109.69 Y62.888 E.1124
G1 X110.584 Y62.774 E.06042
G1 X114.726 Y62.774 E.27761
G1 X116.524 Y63.261 E.1248
G1 X134.717 Y73.914 E1.41298
G1 X152.532 Y87.464 E1.50004
G1 X155.821 Y90.708 E.30963
G1 X156.695 Y92.139 E.1124
G1 X156.866 Y93.229 E.07393
G1 X156.866 Y126.771 E2.24799
G1 X156.471 Y128.401 E.1124
G1 X155.821 Y129.292 E.07393
G1 X152.892 Y132.221 E.27761
G1 X152.278 Y132.713 E.05273
G1 X114.153 Y156.843 E3.0239
G1 X111.937 Y157.382 E.15288
G1 X107.293 Y156.977 E.31238
G1 X105.784 Y156.492 E.10625
G1 X88.708 Y146.362 E1.33067
G1 X87.606 Y145.591 E.09013
G1 X86.615 Y144.718 E.08845
G1 X85.543 Y143.512 E.10819
G1 X66.255 Y118.542 E2.11459
G1 X64.543 Y115.576 E.22958
G1 X63.916 Y113.861 E.12233
G1 X63.557 Y111.447 E.16361
G1 X63.415 Y109.097 E.15777
G1 X63.672 Y107.29 E.12232
G1 X64.73 Y104.032 E.22959
G1 X65.015 Y103.406 E.04612
G1 X65.981 Y101.866 E.1218
G1 X68.513 Y99.083 E.25219
G1 X79.503 Y89.281 E.98692
G1 E-3.5 F3600
;WIPE_START
G1 F7200
G1 X81.742 Y87.285 E-1.425
;WIPE_END
G1 E-.075 F3600
G1 X85.806 Y91.955 F9000
G1 E5 F2400
G1 F1200
G1 X85.869 Y91.805 E.01092
G1 X86.186 Y91.3 E.03994
G1 X87.109 Y90.35 E.08876
G1 X87.716 Y89.941 E.04909
G1 X88.431 Y89.647 E.0518
G1 X89.188 Y89.509 E.05158
G1 X106.615 Y89.511 E1.16791
G1 X105.804 Y88.494 E.08716
G1 X105.617 Y88.295 E.01829
G1 X105.227 Y87.947 E.03501
G1 X104.74 Y87.409 E.0487
G1 X104.138 Y86.787 E.05798
G1 X103.516 Y86.185 E.058
G1 X102.978 Y85.697 E.0487
G1 X102.629 Y85.308 E.03501
G1 X102.431 Y85.121 E.01829
G1 X101.857 Y84.664 E.04914
G1 X100.498 Y83.683 E.11233
G1 X99.981 Y83.149 E.04984
G1 X99.533 Y82.404 E.05825
G1 X99.275 Y81.634 E.05447
G1 X99.157 Y80.371 E.08495
G1 X99.244 Y79.54 E.05606
G1 X99.545 Y78.703 E.05959
G1 X100.025 Y77.971 E.05869
G1 X110.019 Y67.977 E.94717
G1 X110.756 Y67.485 E.05942
G1 X111.259 Y67.276 E.03647
G1 X111.806 Y67.135 E.03791
G1 X113.504 Y67.135 E.11379
G1 X114.052 Y67.276 E.03791
G1 X114.554 Y67.485 E.03646
G1 X115.292 Y67.977 E.05942
G1 X122.948 Y75.633 E.72563
G1 X123.413 Y76.319 E.05555
G1 X123.648 Y76.872 E.0403
G1 X123.787 Y77.383 E.03545
G1 X124.501 Y76.982 E.05485
G1 X125.189 Y76.676 E.05049
G1 X125.913 Y76.437 E.05107
G1 X126.636 Y76.274 E.0497
G1 X127.455 Y76.176 E.05528
G1 X128.22 Y76.164 E.05126
G1 X128.932 Y76.221 E.04788
G1 X129.683 Y76.354 E.05108
G1 X130.391 Y76.553 E.04933
G1 X131.096 Y76.826 E.05066
G1 X131.77 Y77.168 E.05068
G1 X132.431 Y77.591 E.05259
G1 X133.02 Y78.057 E.05033
G1 X133.56 Y78.576 E.05018
G1 X134.052 Y79.152 E.05076
G1 X134.483 Y79.771 E.05057
G1 X134.852 Y80.43 E.05061
G1 X135.147 Y81.103 E.04924
G1 X135.386 Y81.836 E.05168
G1 X135.555 Y82.623 E.05391
G1 X135.642 Y83.432 E.05456
G1 X135.651 Y84.074 E.04302
G1 X135.595 Y84.802 E.04892
G1 X135.462 Y85.558 E.05144
G1 X135.247 Y86.32 E.0531
G1 X134.975 Y87.01 E.04971
G1 X134.635 Y87.677 E.05017
G1 X134.224 Y88.318 E.05101
G1 X133.257 Y89.499 E.10231
G1 X133.987 Y89.525 E.04893
G1 X134.588 Y89.653 E.0412
G1 X135.271 Y89.934 E.04953
G1 X135.826 Y90.297 E.04442
G1 X136.693 Y91.151 E.08157
G1 X137.113 Y91.752 E.0491
G1 X137.543 Y91.475 E.03427
G1 X138.148 Y91.222 E.04395
G1 X138.856 Y91.07 E.04854
G1 X149.005 Y91.077 E.6802
G1 X149.694 Y91.235 E.0474
G1 X150.186 Y91.439 E.03566
G1 X150.669 Y91.724 E.03761
G1 X151.648 Y92.647 E.09016
G1 X152.071 Y93.245 E.0491
G1 X152.384 Y93.967 E.05277
G1 X152.542 Y94.787 E.05591
G1 X152.542 Y125.205 E2.03862
G1 X152.394 Y126.005 E.05451
G1 X152.128 Y126.65 E.04678
G1 X151.8 Y127.169 E.04114
G1 X150.865 Y128.122 E.08952
G1 X150.256 Y128.525 E.0489
G1 X149.605 Y128.793 E.04719
G1 X148.947 Y128.93 E.04507
G1 X138.997 Y128.942 E.66683
G1 X138.25 Y128.811 E.05081
G1 X137.581 Y128.544 E.04828
G1 X137.209 Y128.324 E.02897
G1 X136.748 Y129.017 E.05576
G1 X136.273 Y129.499 E.04534
G1 X136.055 Y129.661 E.01821
G1 X134.421 Y130.475 E.12236
G1 X134.206 Y130.536 E.01493
G1 X133.539 Y130.627 E.04516
G1 X132.655 Y130.57 E.05933
G1 X131.821 Y130.311 E.05855
G1 X130.585 Y129.533 E.0979
G1 X129.777 Y128.908 E.06844
G1 X129 Y128.243 E.06855
G1 X128.266 Y127.746 E.05942
G1 X127.387 Y127.198 E.0694
G1 X126.484 Y126.676 E.0699
G1 X125.564 Y126.185 E.0699
G1 X124.627 Y125.725 E.06991
G1 X123.676 Y125.298 E.06991
G1 X122.711 Y124.902 E.06989
G1 X121.733 Y124.54 E.0699
G1 X120.768 Y124.219 E.06816
G1 X118.717 Y123.65 E.14267
G1 X117.716 Y123.426 E.06875
G1 X116.692 Y123.234 E.06983
G1 X115.64 Y123.073 E.07129
G1 X114.624 Y122.952 E.06858
G1 X113.584 Y122.864 E.06991
G1 X112.543 Y122.811 E.0699
G1 X111.517 Y122.794 E.06876
G1 X109.39 Y122.866 E.14266
G1 X108.393 Y122.951 E.06702
G1 X106.284 Y123.238 E.14266
G1 X105.284 Y123.426 E.06817
G1 X104.267 Y123.653 E.06989
G1 X103.257 Y123.915 E.0699
G1 X102.257 Y124.211 E.06991
G1 X101.267 Y124.54 E.06989
G1 X100.289 Y124.902 E.06991
G1 X99.325 Y125.297 E.06981
G1 X98.355 Y125.734 E.0713
G1 X97.436 Y126.185 E.0686
G1 X96.516 Y126.676 E.0699
G1 X95.613 Y127.198 E.0699
G1 X94.734 Y127.746 E.06941
G1 X94.251 Y128.073 E.03908
G1 X94.378 Y128.475 E.02826
G1 X95.267 Y128.461 E.0596
G1 X95.925 Y128.509 E.04421
G1 X96.732 Y128.646 E.05482
G1 X97.468 Y128.851 E.0512
G1 X98.172 Y129.125 E.05066
G1 X98.871 Y129.48 E.05255
G1 X99.507 Y129.889 E.05068
G1 X100.096 Y130.355 E.05033
G1 X100.636 Y130.874 E.05016
G1 X101.127 Y131.449 E.05066
G1 X101.559 Y132.07 E.05073
G1 X101.928 Y132.729 E.05065
G1 X102.233 Y133.429 E.05117
G1 X102.477 Y134.193 E.05371
G1 X102.645 Y135.009 E.05585
G1 X102.778 Y136.369 E.09156
G1 X110.106 Y129.057 E.6938
G1 X110.755 Y128.635 E.05188
G1 X111.259 Y128.427 E.03652
G1 X111.807 Y128.285 E.03796
G1 X113.367 Y128.269 E.10456
G1 X114.01 Y128.413 E.04417
G1 X114.602 Y128.66 E.04297
G1 X115.291 Y129.127 E.0558
G1 X122.947 Y136.783 E.72566
G1 X123.357 Y137.367 E.04784
G1 X123.662 Y138.067 E.05113
G1 X123.801 Y138.655 E.04051
G1 X123.814 Y140.063 E.09439
G1 X123.694 Y140.674 E.04171
G1 X123.442 Y141.315 E.04616
G1 X122.982 Y142.014 E.05609
G1 X112.955 Y152.049 E.95075
G1 X112.1 Y152.589 E.06773
G1 X111.386 Y152.831 E.05059
G1 X110.626 Y152.919 E.05127
G1 X109.453 Y152.83 E.07881
G1 X108.63 Y152.592 E.0574
G1 X107.996 Y152.25 E.04832
G1 X107.507 Y151.866 E.04168
G1 X106.267 Y150.225 E.13784
G1 X105.804 Y149.645 E.04975
G1 X105.617 Y149.446 E.01829
G1 X105.227 Y149.098 E.03501
G1 X104.74 Y148.559 E.0487
G1 X104.138 Y147.937 E.05798
G1 X103.516 Y147.336 E.058
G1 X102.978 Y146.848 E.0487
G1 X102.629 Y146.459 E.03501
G1 X102.431 Y146.271 E.01829
G1 X101.857 Y145.814 E.04914
G1 X100.495 Y144.831 E.11257
G1 X100.012 Y144.34 E.04618
G1 X99.529 Y143.548 E.06221
G1 X99.212 Y142.626 E.06529
G1 X98.391 Y143.072 E.06258
G1 X97.747 Y143.348 E.04699
G1 X96.995 Y143.588 E.05291
G1 X96.207 Y143.752 E.05393
G1 X95.431 Y143.831 E.05227
G1 X94.791 Y143.837 E.0429
G1 X94.089 Y143.782 E.04717
G1 X93.332 Y143.649 E.05153
G1 X92.542 Y143.424 E.05502
G1 X91.902 Y143.173 E.04607
G1 X91.212 Y142.822 E.05188
G1 X90.573 Y142.412 E.05089
G1 X89.957 Y141.924 E.05267
G1 X89.387 Y141.367 E.05345
G1 X88.873 Y140.749 E.05386
G1 X88.449 Y140.118 E.05096
G1 X88.115 Y139.5 E.04707
G1 X87.839 Y138.858 E.04688
G1 X87.606 Y138.134 E.05095
G1 X87.44 Y137.349 E.05376
G1 X87.36 Y136.595 E.05081
G1 X87.349 Y135.929 E.04466
G1 X87.408 Y135.172 E.05087
G1 X87.538 Y134.443 E.04964
G1 X87.752 Y133.684 E.05285
G1 X87.995 Y133.056 E.04513
G1 X88.337 Y132.373 E.05118
G1 X88.742 Y131.731 E.05084
G1 X89.591 Y130.669 E.09113
G1 X88.5 Y130.446 E.07461
G1 X86.986 Y129.687 E.1135
G1 X86.229 Y128.99 E.06897
G1 X85.799 Y128.332 E.05268
G1 X85.515 Y127.607 E.0522
G1 X85.358 Y125.925 E.1132
G1 X85.358 Y124.742 E.07931
G1 X85.433 Y124.04 E.04731
G1 X85.458 Y123.306 E.04918
G1 X85.458 Y115.977 E.49121
G1 X84.85 Y116.553 E.05612
G1 X84.614 Y116.86 E.02595
G1 X84.117 Y117.323 E.04555
G1 X83.394 Y117.908 E.06234
G1 X82.63 Y118.414 E.06141
G1 X81.973 Y118.786 E.05055
G1 X81.562 Y118.937 E.02939
G1 X81.208 Y119.128 E.02694
G1 X80.462 Y119.378 E.05273
G1 X79.603 Y119.599 E.05946
G1 X78.786 Y119.733 E.05549
G1 X78.02 Y119.807 E.05155
G1 X77.581 Y119.775 E.0295
G1 X77.045 Y119.808 E.036
G1 X75.957 Y119.668 E.07353
G1 X74.987 Y119.451 E.06666
G1 X74.067 Y119.163 E.06456
G1 X73.629 Y118.931 E.03324
G1 X73.182 Y118.769 E.03185
G1 X72.149 Y118.149 E.08074
G1 X71.35 Y117.552 E.06683
G1 X70.65 Y116.933 E.06267
G1 X70.341 Y116.539 E.03352
G1 X70.034 Y116.252 E.02816
G1 X69.328 Y115.254 E.08194
G1 X68.838 Y114.385 E.06688
G1 X68.418 Y113.453 E.06847
G1 X68.312 Y113.007 E.03073
G1 X68.093 Y112.445 E.04046
G1 X67.87 Y111.11 E.0907
G1 X67.801 Y109.546 E.10491
G1 X67.892 Y109.015 E.03608
G1 X67.905 Y108.572 E.02971
G1 X68.061 Y107.807 E.05232
G1 X68.31 Y106.918 E.06187
G1 X68.635 Y106.075 E.06054
G1 X68.914 Y105.475 E.04439
G1 X69.15 Y105.125 E.02823
G1 X69.315 Y104.777 E.02588
G1 X69.705 Y104.222 E.04542
G1 X70.243 Y103.554 E.05749
G1 X70.832 Y102.938 E.05714
G1 X71.456 Y102.371 E.0565
G1 X71.877 Y102.109 E.03321
G1 X72.247 Y101.796 E.03247
G1 X73.197 Y101.269 E.07282
G1 X73.952 Y100.928 E.05555
G1 X75.017 Y100.551 E.0757
G1 X75.556 Y100.471 E.03652
G1 X76.035 Y100.334 E.03339
G1 X76.9 Y100.247 E.05827
G1 X77.766 Y100.225 E.05805
G1 X79.035 Y100.308 E.08526
G1 X79.62 Y100.468 E.04065
G1 X80.156 Y100.544 E.03622
G1 X81.466 Y101.018 E.0934
G1 X82.836 Y101.716 E.10302
G1 X83.326 Y102.114 E.04234
G1 X83.816 Y102.426 E.0389
G1 X84.654 Y103.223 E.0775
G1 X85.459 Y104.126 E.08112
G1 X85.476 Y93.063 E.74145
G1 X85.634 Y92.358 E.0484
G1 X85.77 Y92.038 E.02334
G1 X86.291 Y92.258 F9000
G1 F1200
G1 X86.38 Y92.048 E.01533
G1 X86.646 Y91.63 E.03322
G1 X87.491 Y90.769 E.08082
G1 X88.003 Y90.429 E.0412
G1 X88.615 Y90.183 E.04418
G1 X89.213 Y90.074 E.04078
G1 X107.705 Y90.077 E1.23928
G1 X106.715 Y88.729 E.11206
G1 X106.232 Y88.123 E.05193
G1 X106.011 Y87.889 E.02157
G1 X105.636 Y87.556 E.03361
G1 X105.153 Y87.022 E.04827
G1 X104.538 Y86.387 E.05924
G1 X103.903 Y85.772 E.05925
G1 X103.369 Y85.289 E.04827
G1 X103.036 Y84.914 E.03361
G1 X102.801 Y84.693 E.02157
G1 X102.199 Y84.213 E.0516
G1 X100.849 Y83.238 E.11165
G1 X100.446 Y82.826 E.03864
G1 X100.057 Y82.189 E.05002
G1 X99.835 Y81.546 E.0456
G1 X99.722 Y80.346 E.08078
G1 X99.789 Y79.694 E.04393
G1 X100.039 Y78.98 E.0507
G1 X100.447 Y78.349 E.05036
G1 X110.399 Y68.397 E.94324
G1 X110.998 Y67.997 E.04828
G1 X111.455 Y67.807 E.03319
G1 X111.91 Y67.692 E.03145
G1 X113.4 Y67.692 E.09983
G1 X113.855 Y67.807 E.03145
G1 X114.312 Y67.997 E.03319
G1 X114.911 Y68.397 E.04828
G1 X122.529 Y76.014 E.72198
G1 X122.903 Y76.566 E.04467
G1 X123.118 Y77.071 E.03682
G1 X123.234 Y77.527 E.03154
G1 X123.256 Y78.454 E.06211
G1 X124.173 Y77.815 E.07491
G1 X124.744 Y77.493 E.04394
G1 X125.381 Y77.208 E.04677
G1 X126.051 Y76.986 E.04729
G1 X126.746 Y76.829 E.04777
G1 X127.48 Y76.741 E.0495
G1 X128.19 Y76.729 E.04759
G1 X128.848 Y76.78 E.04426
G1 X129.544 Y76.902 E.04733
G1 X130.225 Y77.093 E.04741
G1 X130.877 Y77.348 E.0469
G1 X131.501 Y77.666 E.04697
G1 X132.092 Y78.044 E.04702
G1 X132.639 Y78.475 E.04667
G1 X133.14 Y78.955 E.04647
G1 X133.596 Y79.488 E.04703
G1 X133.997 Y80.061 E.04685
G1 X134.339 Y80.67 E.04686
G1 X134.623 Y81.317 E.04733
G1 X134.843 Y81.996 E.04786
G1 X134.999 Y82.726 E.05
G1 X135.078 Y83.478 E.05067
G1 X135.085 Y84.068 E.03954
G1 X135.032 Y84.743 E.04542
G1 X134.908 Y85.444 E.0477
G1 X134.707 Y86.151 E.04926
G1 X134.454 Y86.789 E.04599
G1 X134.138 Y87.406 E.04647
G1 X133.755 Y88.001 E.04739
G1 X133.296 Y88.577 E.04939
G1 X132.803 Y89.08 E.04721
G1 X131.599 Y90.077 E.10477
G1 X133.902 Y90.085 E.15439
G1 X134.445 Y90.201 E.03722
G1 X134.989 Y90.424 E.03937
G1 X135.451 Y90.721 E.03681
G1 X136.275 Y91.534 E.07758
G1 X136.592 Y91.998 E.03769
G1 X136.897 Y92.688 E.05058
G1 X137.273 Y92.333 E.03468
G1 X137.789 Y91.985 E.04171
G1 X138.342 Y91.754 E.04018
G1 X138.886 Y91.636 E.03732
G1 X148.913 Y91.636 E.67196
G1 X149.501 Y91.768 E.04042
G1 X149.95 Y91.954 E.03256
G1 X150.352 Y92.193 E.03133
G1 X151.236 Y93.036 E.08188
G1 X151.59 Y93.543 E.04144
G1 X151.852 Y94.16 E.04492
G1 X151.977 Y94.813 E.04459
G1 X151.977 Y125.179 E2.03514
G1 X151.859 Y125.819 E.04361
G1 X151.634 Y126.375 E.04016
G1 X151.372 Y126.798 E.03337
G1 X150.523 Y127.67 E.08156
G1 X150.011 Y128.015 E.04138
G1 X149.458 Y128.246 E.04017
G1 X148.915 Y128.364 E.03726
G1 X139.021 Y128.377 E.6631
G1 X138.432 Y128.274 E.04003
G1 X137.817 Y128.029 E.04437
G1 X137.39 Y127.763 E.03372
G1 X136.975 Y127.382 E.03779
G1 X136.711 Y128.048 E.04798
G1 X136.324 Y128.641 E.0475
G1 X135.885 Y129.087 E.04194
G1 X135.778 Y129.167 E.0089
G1 X134.234 Y129.941 E.11578
G1 X134.106 Y129.978 E.00891
G1 X133.49 Y130.063 E.04172
G1 X132.784 Y130.018 E.04738
G1 X132.088 Y129.811 E.0487
G1 X130.92 Y129.077 E.09246
G1 X130.129 Y128.465 E.06704
G1 X129.344 Y127.792 E.06927
G1 X128.574 Y127.271 E.06228
G1 X127.678 Y126.713 E.07075
G1 X126.759 Y126.181 E.07119
G1 X125.822 Y125.681 E.07118
G1 X124.868 Y125.213 E.07119
G1 X123.899 Y124.778 E.07119
G1 X122.917 Y124.375 E.07117
G1 X121.921 Y124.006 E.07118
G1 X120.933 Y123.678 E.06975
G1 X118.854 Y123.101 E.14459
G1 X117.83 Y122.872 E.07035
G1 X116.787 Y122.676 E.07113
G1 X115.716 Y122.512 E.07257
G1 X114.681 Y122.389 E.06986
G1 X113.623 Y122.3 E.07119
G1 X112.562 Y122.246 E.07118
G1 X111.512 Y122.228 E.07037
G1 X109.356 Y122.302 E.14459
G1 X108.331 Y122.388 E.06894
G1 X106.193 Y122.68 E.14458
G1 X105.17 Y122.872 E.06977
G1 X104.134 Y123.103 E.07117
G1 X103.106 Y123.37 E.07118
G1 X102.087 Y123.671 E.07119
G1 X101.08 Y124.006 E.07118
G1 X100.084 Y124.375 E.07119
G1 X99.102 Y124.777 E.0711
G1 X98.114 Y125.222 E.07258
G1 X97.179 Y125.681 E.06987
G1 X96.241 Y126.181 E.07118
G1 X95.322 Y126.713 E.07118
