; generated by PrusaSlicer 2.5.0+MacOS-arm64 on 2023-06-06 at 15:05:47 UTC

; 

; external perimeters extrusion width = 0.63mm
; perimeters extrusion width = 0.66mm
; infill extrusion width = 0.66mm
; solid infill extrusion width = 0.66mm
; top infill extrusion width = 0.60mm
; support material extrusion width = 0.54mm
; first layer extrusion width = 0.63mm

M201 X500 Y500 Z100 E5000 ; sets maximum accelerations, mm/sec^2
M203 X500 Y500 Z10 E60 ; sets maximum feedrates, mm / sec
M204 P500 R1000 T500 ; sets acceleration (P, T) and retract acceleration (R), mm/sec^2
M205 X8.00 Y8.00 Z0.40 E5.00 ; sets the jerk limits, mm/sec
M205 S0 T0 ; sets the minimum extruding and travel feed rate, mm/sec
M107
;TYPE:Custom
G90 ; use absolute coordinates
M83 ; extruder relative mode
M104 S150 ; set temporary nozzle temp to prevent oozing during homing
M140 S95 ; set final bed temp
G4 S30 ; allow partial nozzle warmup
G28 ; home all axis
G1 Z50 F240
G1 X2.0 Y10 F3000
M104 S240 ; set final nozzle temp
M190 S95 ; wait for bed temp to stabilize
M109 S240 ; wait for nozzle temp to stabilize
G1 Z0.28 F240
G92 E0
G1 X2.0 Y140 E10 F1500 ; prime the nozzle
G1 X2.3 Y140 F5000
G92 E0
G1 X2.3 Y10 E10 F1200 ; prime the nozzle
G92 E0
G21 ; set units to millimeters
G90 ; use absolute coordinates
M83 ; use relative distances for extrusion
; Filament gcode
M107
;LAYER_CHANGE
;Z:0.3
;HEIGHT:0.3
;BEFORE_LAYER_CHANGE
G92 E0
;0.3


G1 E-5 F3600
G1 Z.1 F9000
;AFTER_LAYER_CHANGE
;0.3
G1 X91.405 Y89.544
G1 E5 F2400
M204 S500
;TYPE:Skirt/Brim
;WIDTH:0.63
G1 F1200
G1 X92.055 Y88.88 E.06229
G1 X93.405 Y87.803 E.11578
G1 X96.395 Y85.968 E.23507
G1 X98.742 Y84.784 E.17619
G1 X100.551 Y84.051 E.13082
G1 X102.995 Y83.186 E.1738
G1 X104.268 Y82.87 E.08787
G1 X107.418 Y82.506 E.21252
G1 X110.098 Y82.385 E.17983
G1 X112.58 Y82.506 E.16649
G1 X115.727 Y82.87 E.21235
G1 X117.008 Y83.186 E.08842
G1 X121.078 Y84.704 E.29117
G1 X123.535 Y85.929 E.18393
G1 X126.597 Y87.805 E.24071
G1 X127.948 Y88.882 E.11577
G1 X129.767 Y90.716 E.17314
G1 X131.084 Y92.166 E.13128
G1 X132.685 Y94.251 E.17619
G1 X134.583 Y97.204 E.23527
G1 X135.333 Y98.761 E.11579
G1 X136.457 Y102.083 E.23507
G1 X137.089 Y104.635 E.17619
G1 X137.386 Y106.445 E.12294
G1 X137.7 Y109.138 E.18168
G1 X137.725 Y110.449 E.08786
G1 X137.38 Y113.601 E.21252
G1 X136.932 Y116.106 E.17053
G1 X136.232 Y118.631 E.17562
G1 X135.176 Y121.62 E.21252
G1 X134.582 Y122.799 E.08842
G1 X132.079 Y126.587 E.30434
G1 X130.402 Y128.612 E.17618
G1 X127.945 Y131.12 E.23529
G1 X126.595 Y132.197 E.11578
G1 X123.605 Y134.032 E.23507
G1 X121.258 Y135.216 E.17619
G1 X119.449 Y135.949 E.13082
G1 X117.004 Y136.814 E.17381
G1 X115.732 Y137.13 E.08786
G1 X112.582 Y137.494 E.21252
G1 X109.959 Y137.616 E.17596
G1 X107.42 Y137.495 E.17035
G1 X104.273 Y137.13 E.21235
G1 X102.992 Y136.814 E.08842
G1 X99.565 Y135.568 E.24437
G1 X97.982 Y134.863 E.11618
G1 X96.516 Y134.099 E.11076
G1 X93.403 Y132.195 E.24459
G1 X92.052 Y131.118 E.11577
G1 X90.233 Y129.284 E.17314
G1 X88.916 Y127.834 E.13128
G1 X87.315 Y125.749 E.17619
G1 X85.417 Y122.796 E.23527
G1 X84.667 Y121.239 E.11579
G1 X83.543 Y117.917 E.23506
G1 X82.911 Y115.365 E.17618
G1 X82.614 Y113.555 E.12295
G1 X82.3 Y110.862 E.18168
G1 X82.275 Y109.551 E.08786
G1 X82.62 Y106.399 E.21252
G1 X83.068 Y103.894 E.17053
G1 X83.768 Y101.369 E.17562
G1 X84.824 Y98.38 E.21252
G1 X85.418 Y97.201 E.08842
G1 X87.921 Y93.413 E.30434
G1 X89.598 Y91.388 E.17618
G1 X91.342 Y89.609 E.16697
G1 E-3.5 F3600
;WIPE_START
G1 F7200
G1 X92.055 Y88.88 E-.48422
G1 X93.405 Y87.803 E-.82055
G1 X93.621 Y87.67 E-.12023
;WIPE_END
G1 E-.075 F3600
G1 X94 Y93.077 F9000
G1 E5 F2400
G1 F1200
G1 X94.346 Y92.811 E.02925
G1 X94.612 Y92.671 E.02015
G1 X96.53 Y91.142 E.16436
G1 X96.725 Y90.915 E.0201
G1 X97.189 Y90.529 E.04044
G1 X98.496 Y89.748 E.10202
G1 X99.237 Y89.344 E.05655
G1 X100.07 Y88.933 E.06227
G1 X101.329 Y88.382 E.09211
G1 X102.917 Y87.802 E.11331
G1 X103.371 Y87.719 E.0309
G1 X103.656 Y87.711 E.01913
G1 X106.045 Y87.165 E.16421
G1 X106.302 Y87.051 E.01886
G1 X106.746 Y86.928 E.03089
G1 X108.492 Y86.757 E.1176
G1 X110.177 Y86.71 E.11297
G1 X111.578 Y86.762 E.09392
G1 X113.414 Y86.962 E.12377
G1 X113.744 Y87.067 E.02322
G1 X113.96 Y87.167 E.01598
G1 X116.345 Y87.711 E.16394
G1 X116.645 Y87.722 E.0201
G1 X117.236 Y87.844 E.04044
G1 X118.661 Y88.378 E.102
G1 X119.398 Y88.688 E.05357
G1 X120.803 Y89.364 E.10454
G1 X121.505 Y89.748 E.05361
G1 X122.849 Y90.557 E.10515
G1 X123.277 Y90.916 E.03739
G1 X123.47 Y91.142 E.01997
G1 X125.387 Y92.671 E.16428
G1 X125.636 Y92.8 E.01881
G1 X126.008 Y93.07 E.03083
G1 X127.204 Y94.298 E.11487
G1 X128.152 Y95.405 E.09766
G1 X128.647 Y96.043 E.05413
G1 X129.152 Y96.744 E.05793
G1 X129.99 Y98.016 E.10204
G1 X130.241 Y98.564 E.04046
G1 X130.318 Y98.854 E.02011
G1 X131.381 Y101.061 E.16412
G1 X131.523 Y101.25 E.01587
G1 X131.739 Y101.639 E.02983
G1 X132.093 Y102.622 E.06999
G1 X132.478 Y103.903 E.08967
G1 X132.727 Y104.903 E.06909
G1 X133.002 Y106.334 E.09762
G1 X133.21 Y107.874 E.10419
G1 X133.199 Y108.478 E.04049
G1 X133.142 Y108.774 E.02015
G1 X133.142 Y111.22 E.16396
G1 X133.191 Y111.454 E.01602
G1 X133.22 Y111.8 E.02323
G1 X133.004 Y113.652 E.12501
G1 X132.708 Y115.183 E.10446
G1 X132.311 Y116.69 E.10449
G1 X131.701 Y118.453 E.12504
G1 X131.526 Y118.752 E.02324
G1 X131.38 Y118.942 E.01603
G1 X130.319 Y121.145 E.16389
G1 X130.247 Y121.422 E.01917
G1 X130.065 Y121.846 E.03091
G1 X129.135 Y123.28 E.11455
G1 X128.187 Y124.551 E.10629
G1 X127.208 Y125.697 E.10101
G1 X126.133 Y126.821 E.10423
G1 X125.654 Y127.189 E.04049
G1 X125.388 Y127.329 E.02015
G1 X123.47 Y128.858 E.16436
G1 X123.275 Y129.085 E.0201
G1 X122.811 Y129.471 E.04044
G1 X121.504 Y130.252 E.10202
G1 X120.763 Y130.656 E.05655
G1 X119.93 Y131.067 E.06227
G1 X118.671 Y131.618 E.09212
G1 X117.083 Y132.198 E.11331
G1 X116.629 Y132.281 E.0309
G1 X116.344 Y132.289 E.01913
G1 X113.955 Y132.835 E.16422
G1 X113.703 Y132.948 E.01853
G1 X113.261 Y133.07 E.03074
G1 X111.55 Y133.24 E.11524
G1 X109.923 Y133.292 E.10907
G1 X108.441 Y133.24 E.09936
G1 X106.587 Y133.038 E.12498
G1 X106.257 Y132.933 E.02324
G1 X106.04 Y132.833 E.01603
G1 X103.655 Y132.289 E.16394
G1 X103.355 Y132.278 E.0201
G1 X102.764 Y132.156 E.04044
G1 X101.339 Y131.622 E.102
G1 X100.602 Y131.312 E.05357
G1 X99.197 Y130.636 E.10454
G1 X98.495 Y130.252 E.0536
G1 X97.151 Y129.443 E.10515
G1 X96.723 Y129.084 E.03739
G1 X96.53 Y128.858 E.01997
G1 X94.613 Y127.33 E.16427
G1 X94.365 Y127.201 E.01877
G1 X93.993 Y126.931 E.0308
G1 X92.808 Y125.715 E.11375
G1 X91.849 Y124.596 E.09879
G1 X91.353 Y123.957 E.0542
G1 X90.848 Y123.256 E.05793
G1 X90.01 Y121.984 E.10204
G1 X89.759 Y121.436 E.04046
G1 X89.682 Y121.146 E.02011
G1 X88.619 Y118.939 E.16412
G1 X88.477 Y118.75 E.01587
G1 X88.261 Y118.361 E.02982
G1 X87.911 Y117.391 E.06911
G1 X87.647 Y116.546 E.0593
G1 X87.275 Y115.107 E.09959
G1 X86.998 Y113.666 E.09836
G1 X86.79 Y112.126 E.10419
G1 X86.801 Y111.522 E.04049
G1 X86.858 Y111.226 E.02015
G1 X86.858 Y108.78 E.16396
G1 X86.809 Y108.546 E.01602
G1 X86.78 Y108.2 E.02323
G1 X86.996 Y106.348 E.12501
G1 X87.292 Y104.817 E.10446
G1 X87.689 Y103.31 E.10448
G1 X88.299 Y101.547 E.12504
G1 X88.474 Y101.248 E.02324
G1 X88.62 Y101.058 E.01603
G1 X89.681 Y98.855 E.16389
G1 X89.753 Y98.578 E.01917
G1 X89.935 Y98.154 E.03091
G1 X90.865 Y96.72 E.11455
G1 X91.813 Y95.449 E.10629
G1 X92.792 Y94.303 E.10101
G1 X93.929 Y93.132 E.10937
G1 X94.268 Y93.58 F9000
G1 F1200
G1 X94.665 Y93.279 E.03339
G1 X94.918 Y93.151 E.019
G1 X96.929 Y91.547 E.1724
G1 X97.11 Y91.33 E.01895
G1 X97.5 Y91.003 E.03409
G1 X98.781 Y90.236 E.10008
G1 X99.492 Y89.849 E.05427
G1 X100.303 Y89.448 E.06058
G1 X101.533 Y88.91 E.08998
G1 X103.043 Y88.354 E.10786
G1 X103.448 Y88.28 E.02757
G1 X103.723 Y88.276 E.01843
G1 X106.231 Y87.703 E.1724
G1 X106.477 Y87.589 E.01817
G1 X106.872 Y87.48 E.02752
G1 X108.536 Y87.321 E.11204
G1 X110.166 Y87.275 E.10924
G1 X111.528 Y87.325 E.09137
G1 X113.27 Y87.51 E.11739
G1 X113.553 Y87.6 E.01988
G1 X113.772 Y87.704 E.01628
G1 X116.278 Y88.276 E.17224
G1 X116.561 Y88.282 E.01895
G1 X117.059 Y88.382 E.03408
G1 X118.457 Y88.906 E.10006
G1 X119.172 Y89.206 E.05196
G1 X120.538 Y89.864 E.10164
G1 X121.219 Y90.236 E.05193
G1 X122.537 Y91.029 E.10314
G1 X122.889 Y91.329 E.03099
G1 X123.071 Y91.547 E.01903
G1 X125.082 Y93.151 E.17241
G1 X125.324 Y93.272 E.01813
G1 X125.656 Y93.513 E.02747
G1 X126.791 Y94.685 E.10937
G1 X127.717 Y95.767 E.09547
G1 X128.197 Y96.385 E.05244
G1 X128.683 Y97.06 E.05574
G1 X129.505 Y98.307 E.10009
G1 X129.714 Y98.771 E.0341
G1 X129.783 Y99.046 E.01896
G1 X130.898 Y101.361 E.17223
G1 X131.039 Y101.545 E.01555
G1 X131.232 Y101.893 E.02668
G1 X131.558 Y102.805 E.06486
G1 X131.935 Y104.059 E.08782
G1 X132.173 Y105.018 E.06619
G1 X132.442 Y106.418 E.09553
G1 X132.647 Y107.927 E.10209
G1 X132.634 Y108.436 E.03412
G1 X132.577 Y108.714 E.019
G1 X132.577 Y111.284 E.17225
G1 X132.629 Y111.522 E.01632
G1 X132.654 Y111.817 E.01988
G1 X132.444 Y113.574 E.1186
G1 X132.159 Y115.048 E.10056
G1 X131.772 Y116.517 E.10183
G1 X131.199 Y118.192 E.11862
G1 X131.049 Y118.448 E.01989
G1 X130.898 Y118.639 E.01632
G1 X129.783 Y120.954 E.17224
G1 X129.717 Y121.222 E.01846
G1 X129.555 Y121.6 E.02757
G1 X128.666 Y122.964 E.10907
G1 X127.751 Y124.191 E.10264
G1 X126.794 Y125.312 E.09878
G1 X125.74 Y126.413 E.10213
G1 X125.335 Y126.721 E.03413
G1 X125.082 Y126.849 E.019
G1 X123.071 Y128.453 E.1724
G1 X122.89 Y128.67 E.01895
G1 X122.5 Y128.997 E.03409
G1 X121.219 Y129.764 E.10008
G1 X120.508 Y130.151 E.05427
G1 X119.697 Y130.552 E.06058
G1 X118.467 Y131.09 E.08998
G1 X116.957 Y131.646 E.10787
G1 X116.552 Y131.72 E.02757
G1 X116.277 Y131.724 E.01843
G1 X113.77 Y132.297 E.17239
G1 X113.523 Y132.411 E.01823
G1 X113.178 Y132.51 E.02403
G1 X111.503 Y132.677 E.1128
G1 X109.933 Y132.726 E.10527
G1 X108.49 Y132.676 E.09676
G1 X106.731 Y132.49 E.11859
G1 X106.448 Y132.401 E.01989
G1 X106.228 Y132.296 E.01632
G1 X103.722 Y131.724 E.17224
G1 X103.44 Y131.718 E.01895
G1 X102.941 Y131.618 E.03409
G1 X101.543 Y131.094 E.10006
G1 X100.828 Y130.794 E.05197
G1 X99.462 Y130.136 E.10164
G1 X98.781 Y129.764 E.05193
G1 X97.463 Y128.971 E.10314
G1 X97.111 Y128.671 E.03099
G1 X96.929 Y128.453 E.01903
G1 X94.918 Y126.849 E.1724
G1 X94.677 Y126.728 E.01809
G1 X94.345 Y126.488 E.02745
G1 X93.221 Y125.328 E.10826
G1 X92.283 Y124.233 E.09659
G1 X91.803 Y123.615 E.0525
G1 X91.317 Y122.94 E.05574
G1 X90.495 Y121.693 E.10009
G1 X90.286 Y121.229 E.0341
G1 X90.217 Y120.954 E.01896
G1 X89.102 Y118.639 E.17223
G1 X88.961 Y118.455 E.01555
G1 X88.768 Y118.107 E.02668
G1 X88.446 Y117.206 E.0641
G1 X88.193 Y116.397 E.05681
G1 X87.829 Y114.992 E.09731
G1 X87.558 Y113.582 E.09617
G1 X87.353 Y112.073 E.10209
G1 X87.366 Y111.564 E.03413
G1 X87.423 Y111.286 E.019
G1 X87.423 Y108.716 E.17225
G1 X87.371 Y108.478 E.01632
G1 X87.346 Y108.183 E.01988
G1 X87.556 Y106.426 E.1186
G1 X87.841 Y104.952 E.10056
G1 X88.228 Y103.483 E.10183
G1 X88.801 Y101.808 E.11863
G1 X88.951 Y101.552 E.01989
G1 X89.102 Y101.361 E.01632
G1 X90.217 Y99.046 E.17224
G1 X90.283 Y98.778 E.01846
G1 X90.445 Y98.4 E.02757
G1 X91.334 Y97.036 E.10907
G1 X92.249 Y95.809 E.10264
G1 X93.206 Y94.688 E.09878
G1 X94.205 Y93.644 E.09684
G1 X94.614 Y94.035 F9000
G1 F1200
G1 X94.979 Y93.75 E.03104
G1 X95.22 Y93.634 E.01789
G1 X97.333 Y91.948 E.18121
G1 X97.5 Y91.74 E.01785
G1 X97.811 Y91.475 E.0274
G1 X99.067 Y90.724 E.09805
G1 X99.748 Y90.353 E.052
G1 X100.536 Y89.964 E.05889
G1 X101.737 Y89.437 E.08792
G1 X103.169 Y88.906 E.10236
G1 X103.522 Y88.842 E.02401
G1 X103.784 Y88.842 E.01757
G1 X106.421 Y88.24 E.18126
G1 X106.659 Y88.125 E.01773
G1 X106.954 Y88.041 E.02055
G1 X108.581 Y87.885 E.10955
G1 X110.155 Y87.841 E.10551
G1 X111.48 Y87.889 E.0889
G1 X113.127 Y88.058 E.11095
G1 X113.36 Y88.132 E.01635
G1 X113.58 Y88.24 E.01646
G1 X116.216 Y88.842 E.1812
G1 X116.482 Y88.842 E.01785
G1 X116.884 Y88.921 E.0274
G1 X118.254 Y89.434 E.09804
G1 X118.946 Y89.725 E.05035
G1 X120.274 Y90.364 E.09877
G1 X120.933 Y90.724 E.05034
G1 X122.189 Y91.475 E.09805
G1 X122.5 Y91.74 E.02741
G1 X122.667 Y91.948 E.01786
G1 X124.781 Y93.634 E.18123
G1 X125.019 Y93.749 E.01771
G1 X125.269 Y93.926 E.02052
G1 X126.379 Y95.072 E.10694
G1 X127.283 Y96.13 E.09325
G1 X127.747 Y96.728 E.05075
G1 X128.214 Y97.377 E.05355
G1 X129.019 Y98.598 E.09806
G1 X129.185 Y98.972 E.02741
G1 X129.245 Y99.232 E.01786
G1 X130.417 Y101.667 E.18111
G1 X130.558 Y101.842 E.01507
G1 X130.726 Y102.146 E.02328
G1 X131.022 Y102.986 E.05966
G1 X131.391 Y104.216 E.08607
G1 X131.619 Y105.132 E.06331
G1 X131.883 Y106.501 E.09343
G1 X132.083 Y107.979 E.09992
G1 X132.07 Y108.388 E.02743
G1 X132.011 Y108.648 E.01789
G1 X132.011 Y111.352 E.18122
G1 X132.068 Y111.591 E.01648
G1 X132.088 Y111.835 E.01636
G1 X131.883 Y113.495 E.11213
G1 X131.605 Y114.931 E.09801
G1 X131.233 Y116.345 E.09803
G1 X130.696 Y117.931 E.11216
G1 X130.573 Y118.141 E.01636
G1 X130.418 Y118.332 E.01649
G1 X129.244 Y120.769 E.18124
G1 X129.186 Y121.025 E.01759
G1 X129.045 Y121.354 E.02401
G1 X128.198 Y122.646 E.10354
G1 X127.315 Y123.831 E.09907
G1 X126.38 Y124.927 E.09655
G1 X125.349 Y126.005 E.09995
G1 X125.021 Y126.25 E.02743
G1 X124.78 Y126.366 E.01789
G1 X122.667 Y128.052 E.18121
G1 X122.5 Y128.26 E.01785
G1 X122.189 Y128.525 E.0274
G1 X120.933 Y129.276 E.09805
G1 X120.252 Y129.647 E.052
G1 X119.464 Y130.036 E.05889
G1 X118.263 Y130.563 E.08792
G1 X116.831 Y131.094 E.10236
G1 X116.478 Y131.158 E.02401
G1 X116.216 Y131.158 E.01757
G1 X113.579 Y131.76 E.18125
G1 X113.341 Y131.875 E.01771
G1 X113.047 Y131.959 E.02052
G1 X111.458 Y132.113 E.10698
G1 X109.943 Y132.161 E.10159
G1 X108.538 Y132.113 E.09424
G1 X106.874 Y131.942 E.11213
G1 X106.641 Y131.868 E.01636
G1 X106.42 Y131.76 E.01649
G1 X103.784 Y131.158 E.18121
G1 X103.518 Y131.158 E.01785
G1 X103.116 Y131.079 E.0274
G1 X101.746 Y130.566 E.09804
G1 X101.054 Y130.275 E.05035
G1 X99.726 Y129.636 E.09877
G1 X99.067 Y129.276 E.05035
G1 X97.811 Y128.525 E.09805
G1 X97.5 Y128.26 E.02741
G1 X97.333 Y128.052 E.01786
G1 X95.219 Y126.366 E.18122
G1 X94.982 Y126.251 E.01768
G1 X94.732 Y126.074 E.0205
G1 X93.633 Y124.941 E.10582
G1 X92.718 Y123.871 E.09436
G1 X92.253 Y123.272 E.0508
G1 X91.786 Y122.623 E.05355
G1 X90.981 Y121.402 E.09806
G1 X90.815 Y121.028 E.02741
G1 X90.755 Y120.768 E.01786
G1 X89.583 Y118.333 E.18111
G1 X89.442 Y118.158 E.01507
G1 X89.274 Y117.854 E.02328
G1 X88.982 Y117.024 E.05901
G1 X88.739 Y116.248 E.05446
G1 X88.382 Y114.876 E.09503
G1 X88.117 Y113.499 E.09398
G1 X87.917 Y112.021 E.09992
G1 X87.93 Y111.612 E.02743
G1 X87.989 Y111.352 E.01789
G1 X87.989 Y108.648 E.18122
G1 X87.932 Y108.409 E.01648
G1 X87.912 Y108.165 E.01636
G1 X88.117 Y106.505 E.11213
G1 X88.395 Y105.069 E.09801
G1 X88.767 Y103.655 E.09803
G1 X89.304 Y102.069 E.11216
G1 X89.427 Y101.859 E.01636
G1 X89.582 Y101.668 E.01649
G1 X90.756 Y99.231 E.18124
G1 X90.814 Y98.975 E.01759
G1 X90.955 Y98.646 E.02401
G1 X91.802 Y97.354 E.10354
G1 X92.685 Y96.169 E.09907
G1 X93.62 Y95.073 E.09655
G1 X94.551 Y94.1 E.09026
G1 X94.96 Y94.491 F9000
G1 F1200
G1 X95.042 Y94.405 E.00793
G1 X95.286 Y94.226 E.02031
G1 X95.515 Y94.122 E.01688
G1 X97.743 Y92.345 E.19094
G1 X97.896 Y92.146 E.01684
G1 X98.124 Y91.947 E.02028
G1 X99.352 Y91.212 E.09591
G1 X100.004 Y90.858 E.04974
G1 X100.769 Y90.479 E.0572
G1 X101.942 Y89.965 E.08582
G1 X103.34 Y89.446 E.09992
G1 X103.586 Y89.404 E.01674
G1 X103.839 Y89.409 E.01699
G1 X106.617 Y88.775 E.19094
G1 X106.844 Y88.661 E.01702
G1 X107.084 Y88.592 E.01677
G1 X108.624 Y88.449 E.10363
G1 X110.144 Y88.407 E.10191
G1 X111.434 Y88.452 E.08654
G1 X112.985 Y88.606 E.10443
G1 X113.164 Y88.663 E.0126
G1 X113.383 Y88.775 E.01648
G1 X116.161 Y89.409 E.19098
G1 X116.412 Y89.404 E.01684
G1 X116.71 Y89.459 E.02028
G1 X118.05 Y89.961 E.09591
G1 X118.72 Y90.243 E.04874
G1 X120.009 Y90.864 E.09591
G1 X120.648 Y91.212 E.04873
G1 X121.876 Y91.947 E.09591
G1 X122.104 Y92.146 E.02029
G1 X122.257 Y92.345 E.01685
G1 X124.485 Y94.122 E.19094
G1 X124.715 Y94.227 E.01701
G1 X124.919 Y94.372 E.01674
G1 X125.965 Y95.458 E.10108
G1 X126.848 Y96.492 E.09112
