; generated by PrusaSlicer 2.5.0+MacOS-arm64 on 2023-06-09 at 13:56:42 UTC

; 

; external perimeters extrusion width = 0.63mm
; perimeters extrusion width = 0.66mm
; infill extrusion width = 0.66mm
; solid infill extrusion width = 0.66mm
; top infill extrusion width = 0.60mm
; first layer extrusion width = 0.63mm

M201 X500 Y500 Z100 E5000 ; sets maximum accelerations, mm/sec^2
M203 X500 Y500 Z10 E60 ; sets maximum feedrates, mm / sec
M204 P500 R1000 T500 ; sets acceleration (P, T) and retract acceleration (R), mm/sec^2
M205 X8.00 Y8.00 Z0.40 E5.00 ; sets the jerk limits, mm/sec
M205 S0 T0 ; sets the minimum extruding and travel feed rate, mm/sec
M107
;TYPE:Custom
G90 ; use absolute coordinates
M83 ; extruder relative mode
M104 S150 ; set temporary nozzle temp to prevent oozing during homing
M140 S95 ; set final bed temp
G4 S30 ; allow partial nozzle warmup
G28 ; home all axis
G1 Z50 F240
G1 X2.0 Y10 F3000
M104 S240 ; set final nozzle temp
M190 S95 ; wait for bed temp to stabilize
M109 S240 ; wait for nozzle temp to stabilize
G1 Z0.28 F240
G92 E0
G1 X2.0 Y140 E10 F1500 ; prime the nozzle
G1 X2.3 Y140 F5000
G92 E0
G1 X2.3 Y10 E10 F1200 ; prime the nozzle
G92 E0
G21 ; set units to millimeters
G90 ; use absolute coordinates
M83 ; use relative distances for extrusion
; Filament gcode
M107
;LAYER_CHANGE
;Z:0.3
;HEIGHT:0.3
;BEFORE_LAYER_CHANGE
G92 E0
;0.3


G1 E-5 F3600
G1 Z.1 F9000
;AFTER_LAYER_CHANGE
;0.3
G1 X54.247 Y87.805
G1 E5 F2400
M204 S500
;TYPE:Skirt/Brim
;WIDTH:0.63
G1 F1200
G1 X56.074 Y86.958 E.13491
G1 X57.615 Y86.449 E.10879
G1 X59.602 Y86.003 E.13648
G1 X61.535 Y85.746 E.13065
G1 X64.195 Y85.606 E.17857
G1 X155.037 Y85.599 E6.08818
G1 X157.031 Y85.646 E.13368
G1 X158.897 Y85.793 E.12542
G1 X161.879 Y86.315 E.2029
G1 X163.216 Y86.703 E.09331
G1 X164.438 Y87.167 E.08761
G1 X165.683 Y87.768 E.09266
G1 X166.655 Y88.345 E.07573
G1 X167.728 Y89.114 E.0885
G1 X168.622 Y89.89 E.07931
G1 X169.656 Y90.992 E.10133
G1 X170.403 Y91.97 E.08241
G1 X171.129 Y93.128 E.09159
G1 X171.802 Y94.487 E.10165
G1 X172.32 Y95.852 E.09789
G1 X172.741 Y97.353 E.10446
G1 X173.233 Y100.328 E.20213
G1 X173.394 Y103.148 E.18925
G1 X173.401 Y124.034 E1.39979
G1 X173.253 Y125.748 E.11531
G1 X172.918 Y127.131 E.0954
G1 X172.426 Y128.396 E.09093
G1 X171.781 Y129.575 E.09009
G1 X171.015 Y130.629 E.08732
G1 X170.13 Y131.573 E.08671
G1 X169.139 Y132.396 E.08634
G1 X168.064 Y133.085 E.08556
G1 X166.911 Y133.638 E.08575
G1 X165.176 Y134.17 E.1216
G1 X164.128 Y134.34 E.07118
G1 X163.074 Y134.401 E.07072
G1 X56.473 Y134.388 E7.14436
G1 X55.136 Y134.233 E.09022
G1 X53.704 Y133.865 E.09908
G1 X52.315 Y133.286 E.1009
G1 X50.979 Y132.48 E.10454
G1 X49.971 Y131.666 E.08684
G1 X48.737 Y130.316 E.12257
G1 X47.916 Y129.066 E.10022
G1 X47.362 Y127.912 E.08578
G1 X46.83 Y126.177 E.12167
G1 X46.66 Y125.128 E.07119
G1 X46.599 Y124.074 E.07074
G1 X46.613 Y102.865 E1.42144
G1 X46.793 Y100.1 E.18568
G1 X47.124 Y97.958 E.1453
G1 X47.661 Y95.913 E.14165
G1 X48.248 Y94.378 E.11016
G1 X49.161 Y92.636 E.13183
G1 X50.189 Y91.177 E.11961
G1 X51.414 Y89.856 E.12075
G1 X52.761 Y88.744 E.11706
G1 X54.171 Y87.853 E.1118
G1 E-3.5 F3600
;WIPE_START
G1 F7200
G1 X56.074 Y86.958 E-.99855
G1 X56.926 Y86.677 E-.42645
;WIPE_END
G1 E-.075 F3600
G1 X56.342 Y91.592 F9000
G1 E5 F2400
G1 F1200
G1 X57.189 Y91.173 E.06333
G1 X57.822 Y90.92 E.04568
G1 X58.59 Y90.666 E.05421
G1 X59.457 Y90.44 E.06002
G1 X60.318 Y90.268 E.05885
G1 X61.827 Y90.062 E.1021
G1 X63.4 Y89.953 E.10564
G1 X64.967 Y89.923 E.10507
G1 X155.354 Y89.927 E6.05773
G1 X156.773 Y89.963 E.09515
G1 X157.662 Y90.019 E.05967
G1 X159.191 Y90.189 E.10312
G1 X160.118 Y90.348 E.06302
G1 X161.045 Y90.564 E.06377
G1 X161.955 Y90.841 E.06377
G1 X162.9 Y91.214 E.0681
G1 X163.857 Y91.7 E.0719
G1 X164.716 Y92.255 E.06859
G1 X165.53 Y92.92 E.07043
G1 X166.173 Y93.575 E.0615
G1 X166.853 Y94.437 E.07361
G1 X167.404 Y95.327 E.07013
G1 X167.866 Y96.278 E.07085
G1 X168.245 Y97.302 E.07321
G1 X168.548 Y98.405 E.07665
G1 X168.748 Y99.412 E.06881
G1 X168.941 Y100.854 E.09747
G1 X169.014 Y101.752 E.06042
G1 X169.071 Y103.26 E.10111
G1 X169.055 Y124.509 E1.42411
G1 X168.924 Y125.357 E.05754
G1 X168.693 Y126.123 E.05358
G1 X168.384 Y126.818 E.05099
G1 X168.084 Y127.327 E.0396
G1 X167.741 Y127.802 E.03924
G1 X167.134 Y128.454 E.05973
G1 X166.402 Y129.036 E.06268
G1 X165.902 Y129.339 E.03914
G1 X165.341 Y129.608 E.04173
G1 X164.654 Y129.847 E.04877
G1 X163.913 Y130.008 E.05081
G1 X163.09 Y130.076 E.05531
G1 X153.805 Y130.072 E.62228
G1 X152.959 Y129.987 E.05697
G1 X152.125 Y129.78 E.05761
G1 X151.344 Y129.464 E.05648
G1 X150.596 Y129.033 E.05787
G1 X149.938 Y128.52 E.05587
G1 X149.482 Y128.063 E.04329
G1 X149.085 Y127.574 E.04223
G1 X148.606 Y126.798 E.06112
G1 X148.336 Y126.201 E.04391
G1 X148.137 Y125.597 E.04258
G1 X147.987 Y124.874 E.04951
G1 X147.924 Y124.111 E.05132
G1 X147.923 Y121.668 E.16374
G1 X148.03 Y121 E.04533
G1 X148.292 Y120.305 E.0498
G1 X148.687 Y119.669 E.05016
G1 X149.672 Y118.684 E.09339
G1 X150.409 Y118.198 E.05914
G1 X147.312 Y117.042 E.22151
G1 X144.82 Y116.184 E.17663
G1 X142.908 Y115.577 E.13445
G1 X117.984 Y115.577 E1.67045
G1 X117.744 Y116.029 E.03429
G1 X117.336 Y116.663 E.05051
G1 X116.875 Y117.262 E.05067
G1 X116.382 Y117.805 E.04916
G1 X115.764 Y118.375 E.05632
G1 X115.137 Y118.854 E.05289
G1 X114.452 Y119.288 E.05437
G1 X113.714 Y119.666 E.05551
G1 X113.015 Y119.949 E.05055
G1 X112.318 Y120.167 E.049
G1 X111.506 Y120.344 E.0557
G1 X110.756 Y120.439 E.05067
G1 X110 Y120.471 E.05066
G1 X109.244 Y120.439 E.05077
G1 X108.494 Y120.344 E.05066
G1 X107.709 Y120.174 E.05381
G1 X106.987 Y119.95 E.05069
G1 X106.286 Y119.666 E.05068
G1 X105.548 Y119.288 E.05552
G1 X104.863 Y118.854 E.05437
G1 X104.236 Y118.375 E.05289
G1 X103.618 Y117.805 E.05632
G1 X103.125 Y117.263 E.04912
G1 X102.665 Y116.664 E.05062
G1 X102.257 Y116.03 E.05056
G1 X102.017 Y115.577 E.03434
G1 X77.097 Y115.577 E1.67011
G1 X74.669 Y116.355 E.17082
G1 X72.692 Y117.04 E.14025
G1 X69.598 Y118.195 E.22133
G1 X70.442 Y118.778 E.06873
G1 X71.324 Y119.682 E.08461
G1 X71.651 Y120.19 E.04052
G1 X71.932 Y120.873 E.04947
G1 X72.066 Y121.53 E.04497
G1 X72.074 Y124.154 E.17588
G1 X72.008 Y124.908 E.0507
G1 X71.8 Y125.808 E.06195
G1 X71.475 Y126.634 E.05948
G1 X71.104 Y127.296 E.05085
G1 X70.712 Y127.837 E.04476
G1 X70.063 Y128.518 E.06304
G1 X69.439 Y129.01 E.05326
G1 X68.87 Y129.356 E.04461
G1 X68.27 Y129.637 E.04445
G1 X67.472 Y129.896 E.05621
G1 X66.781 Y130.026 E.04715
G1 X66.105 Y130.076 E.0454
G1 X56.934 Y130.077 E.61466
G1 X56.125 Y130.013 E.05438
G1 X55.326 Y129.841 E.05476
G1 X54.473 Y129.525 E.06094
G1 X53.716 Y129.112 E.05779
G1 X53.035 Y128.604 E.05695
G1 X52.477 Y128.058 E.05236
G1 X51.998 Y127.45 E.05188
G1 X51.664 Y126.907 E.0427
G1 X51.38 Y126.311 E.04425
G1 X51.152 Y125.653 E.04666
G1 X50.992 Y124.913 E.05074
G1 X50.923 Y124.068 E.05682
G1 X50.923 Y103.971 E1.34691
G1 X50.964 Y102.185 E.11972
G1 X51.085 Y100.631 E.10446
G1 X51.201 Y99.722 E.06139
G1 X51.34 Y98.922 E.05448
G1 X51.567 Y97.947 E.06704
G1 X51.939 Y96.774 E.08246
G1 X52.317 Y95.878 E.06522
G1 X52.675 Y95.187 E.05212
G1 X53.129 Y94.463 E.05729
G1 X53.613 Y93.821 E.05388
G1 X54.473 Y92.915 E.08372
G1 X55.024 Y92.453 E.04823
G1 X55.795 Y91.909 E.06322
G1 X56.264 Y91.637 E.03634
G1 X56.548 Y92.125 F9000
G1 F1200
G1 X57.427 Y91.686 E.06587
G1 X58.008 Y91.454 E.04194
G1 X58.742 Y91.211 E.05183
G1 X59.576 Y90.993 E.05778
G1 X60.403 Y90.827 E.05654
G1 X61.876 Y90.625 E.0996
G1 X63.432 Y90.518 E.10453
G1 X64.975 Y90.489 E.10346
G1 X155.351 Y90.493 E6.05696
G1 X156.754 Y90.528 E.09408
G1 X157.606 Y90.581 E.05723
G1 X159.12 Y90.75 E.1021
G1 X159.998 Y90.901 E.05969
G1 X160.89 Y91.108 E.06134
G1 X161.759 Y91.372 E.06087
G1 X162.657 Y91.725 E.06467
G1 X163.562 Y92.183 E.06801
G1 X164.396 Y92.722 E.0665
G1 X165.16 Y93.347 E.06621
G1 X165.739 Y93.937 E.05534
G1 X166.399 Y94.774 E.07148
G1 X166.915 Y95.611 E.06589
G1 X167.35 Y96.512 E.06705
G1 X167.703 Y97.464 E.06804
G1 X167.999 Y98.545 E.07516
G1 X168.189 Y99.496 E.06498
G1 X168.38 Y100.921 E.09637
G1 X168.449 Y101.78 E.05772
G1 X168.506 Y103.276 E.10034
G1 X168.493 Y124.445 E1.41876
G1 X168.376 Y125.216 E.05221
G1 X168.169 Y125.911 E.04863
G1 X167.887 Y126.547 E.04658
G1 X167.618 Y127.007 E.03577
G1 X167.293 Y127.456 E.03708
G1 X166.736 Y128.051 E.05467
G1 X166.066 Y128.58 E.05721
G1 X165.622 Y128.847 E.03469
G1 X165.138 Y129.08 E.03601
G1 X164.516 Y129.298 E.04417
G1 X163.812 Y129.451 E.04831
G1 X163.057 Y129.512 E.05077
G1 X153.82 Y129.507 E.61904
G1 X153.038 Y129.426 E.05268
G1 X152.283 Y129.236 E.05218
G1 X151.576 Y128.948 E.05117
G1 X150.897 Y128.554 E.05259
G1 X150.302 Y128.086 E.05078
G1 X149.911 Y127.695 E.03709
G1 X149.556 Y127.26 E.03757
G1 X149.097 Y126.517 E.05856
G1 X148.858 Y125.983 E.03919
G1 X148.687 Y125.466 E.03647
G1 X148.544 Y124.777 E.04719
G1 X148.489 Y124.078 E.04698
G1 X148.488 Y121.689 E.1601
G1 X148.57 Y121.172 E.0351
G1 X148.811 Y120.532 E.04582
G1 X149.147 Y120 E.04219
G1 X150.046 Y119.109 E.08482
G1 X150.464 Y118.844 E.03317
G1 X151.021 Y118.614 E.04037
G1 X151.574 Y118.495 E.03792
G1 X151.61 Y118.079 E.02799
G1 X150.482 Y117.621 E.0816
G1 X147.503 Y116.509 E.21307
G1 X144.998 Y115.647 E.17757
G1 X142.996 Y115.012 E.14077
G1 X117.642 Y115.011 E1.69924
G1 X117.261 Y115.734 E.05476
G1 X116.88 Y116.328 E.0473
G1 X116.449 Y116.891 E.04747
G1 X115.971 Y117.415 E.04753
G1 X115.41 Y117.933 E.05123
G1 X114.804 Y118.397 E.05115
G1 X114.161 Y118.803 E.05094
G1 X113.49 Y119.146 E.05053
G1 X112.836 Y119.413 E.04733
G1 X112.161 Y119.623 E.04736
G1 X111.422 Y119.784 E.0507
G1 X110.696 Y119.877 E.049
G1 X109.99 Y119.905 E.04741
G1 X109.28 Y119.875 E.04757
G1 X108.578 Y119.784 E.04746
G1 X107.865 Y119.63 E.04892
G1 X107.166 Y119.413 E.04904
G1 X106.51 Y119.146 E.04743
G1 X105.839 Y118.803 E.05053
G1 X105.196 Y118.397 E.05094
G1 X104.59 Y117.933 E.05115
G1 X104.029 Y117.415 E.05123
G1 X103.552 Y116.891 E.04748
G1 X103.121 Y116.33 E.04743
G1 X102.74 Y115.735 E.04735
G1 X102.358 Y115.011 E.05481
G1 X77.008 Y115.012 E1.69894
G1 X74.491 Y115.818 E.17719
G1 X72.501 Y116.508 E.14115
G1 X69.518 Y117.621 E.21337
G1 X68.39 Y118.079 E.08157
G1 X68.426 Y118.495 E.02799
G1 X68.98 Y118.614 E.03798
G1 X69.549 Y118.851 E.0413
G1 X70.06 Y119.197 E.04135
G1 X70.866 Y120.016 E.07702
G1 X71.14 Y120.434 E.03351
G1 X71.385 Y121.018 E.04244
G1 X71.5 Y121.562 E.03727
G1 X71.508 Y124.144 E.17302
G1 X71.452 Y124.802 E.04429
G1 X71.266 Y125.622 E.05633
G1 X70.956 Y126.409 E.05666
G1 X70.62 Y127.003 E.04577
G1 X70.267 Y127.488 E.04022
G1 X69.67 Y128.111 E.05785
G1 X69.105 Y128.553 E.04805
G1 X68.591 Y128.864 E.04021
G1 X68.047 Y129.117 E.04024
G1 X67.348 Y129.344 E.04927
G1 X66.722 Y129.464 E.04271
G1 X66.094 Y129.51 E.04218
G1 X56.944 Y129.512 E.61323
G1 X56.223 Y129.456 E.04849
G1 X55.501 Y129.303 E.04946
G1 X54.724 Y129.018 E.05549
G1 X54.038 Y128.646 E.05229
G1 X53.389 Y128.163 E.05422
G1 X52.887 Y127.668 E.0472
G1 X52.453 Y127.114 E.04719
G1 X52.167 Y126.649 E.03659
G1 X51.908 Y126.109 E.04013
G1 X51.701 Y125.516 E.04209
G1 X51.549 Y124.812 E.04827
G1 X51.488 Y124.057 E.05077
G1 X51.488 Y103.981 E1.34551
G1 X51.53 Y102.206 E.11898
G1 X51.648 Y100.682 E.10244
G1 X51.761 Y99.801 E.05955
G1 X51.896 Y99.026 E.05268
G1 X52.109 Y98.107 E.06323
G1 X52.474 Y96.958 E.08081
G1 X52.833 Y96.108 E.06182
G1 X53.16 Y95.478 E.04759
G1 X53.602 Y94.774 E.05568
G1 X54.055 Y94.175 E.05035
G1 X54.849 Y93.337 E.07737
G1 X55.36 Y92.908 E.04474
G1 X56.111 Y92.379 E.06156
G1 X56.47 Y92.171 E.0278
G1 X56.753 Y92.659 F9000
G1 F1200
G1 X57.664 Y92.2 E.06842
G1 X58.194 Y91.988 E.03823
G1 X58.894 Y91.756 E.04945
G1 X59.696 Y91.546 E.05555
G1 X60.489 Y91.386 E.05421
G1 X61.924 Y91.189 E.09708
G1 X63.463 Y91.082 E.1034
G1 X64.983 Y91.054 E.10185
G1 X155.347 Y91.058 E6.05619
G1 X156.734 Y91.093 E.09301
G1 X157.55 Y91.144 E.0548
G1 X159.049 Y91.311 E.10108
G1 X159.878 Y91.454 E.05638
G1 X160.735 Y91.652 E.05894
G1 X161.563 Y91.903 E.05799
G1 X162.414 Y92.236 E.06125
G1 X163.269 Y92.667 E.06415
G1 X164.05 Y93.17 E.06225
G1 X164.79 Y93.775 E.06408
G1 X165.304 Y94.3 E.04923
G1 X165.926 Y95.086 E.06716
G1 X166.426 Y95.895 E.06377
G1 X166.835 Y96.745 E.0632
G1 X167.16 Y97.626 E.06293
G1 X167.447 Y98.666 E.07233
G1 X167.629 Y99.58 E.06248
G1 X167.818 Y100.989 E.09525
G1 X167.884 Y101.807 E.05503
G1 X167.941 Y103.292 E.09958
G1 X167.93 Y124.383 E1.41352
G1 X167.827 Y125.076 E.04691
G1 X167.643 Y125.701 E.04366
G1 X167.39 Y126.275 E.04208
G1 X167.137 Y126.709 E.0337
G1 X166.847 Y127.108 E.03304
G1 X166.339 Y127.648 E.04967
G1 X165.759 Y128.105 E.04946
G1 X165.343 Y128.355 E.03257
G1 X164.909 Y128.562 E.03222
G1 X164.348 Y128.758 E.03985
G1 X163.713 Y128.894 E.04349
G1 X163.046 Y128.946 E.04482
G1 X153.862 Y128.942 E.61554
G1 X153.153 Y128.872 E.0477
G1 X152.477 Y128.705 E.04669
G1 X151.809 Y128.432 E.04838
G1 X151.2 Y128.076 E.04723
G1 X150.69 Y127.675 E.04353
G1 X150.321 Y127.305 E.03496
G1 X150.008 Y126.919 E.03338
G1 X149.589 Y126.237 E.05359
G1 X149.39 Y125.791 E.03276
G1 X149.237 Y125.333 E.03236
G1 X149.106 Y124.713 E.04244
G1 X149.055 Y124.067 E.04348
G1 X149.054 Y121.71 E.15796
G1 X149.11 Y121.343 E.02487
G1 X149.33 Y120.758 E.04189
G1 X149.57 Y120.377 E.0302
G1 X150.38 Y119.567 E.07674
G1 X150.706 Y119.357 E.02599
G1 X151.21 Y119.148 E.0366
G1 X151.649 Y119.06 E.03002
G1 X153.054 Y119.055 E.09416
G1 X153.054 Y118.054 E.06709
G1 X150.687 Y117.094 E.1712
G1 X147.694 Y115.977 E.2141
G1 X145.175 Y115.11 E.17852
G1 X143.084 Y114.446 E.1471
G1 X117.259 Y114.446 E1.73075
G1 X117.095 Y114.835 E.02833
G1 X116.778 Y115.44 E.04578
G1 X116.423 Y115.995 E.04411
G1 X116.022 Y116.519 E.04424
G1 X115.561 Y117.025 E.04587
G1 X115.055 Y117.492 E.04614
G1 X114.47 Y117.94 E.04939
G1 X113.871 Y118.317 E.04748
G1 X113.265 Y118.627 E.04558
G1 X112.634 Y118.884 E.04569
G1 X112.005 Y119.079 E.04411
G1 X111.337 Y119.225 E.04581
G1 X110.66 Y119.312 E.04576
G1 X110.001 Y119.34 E.0442
G1 X109.34 Y119.312 E.04432
G1 X108.662 Y119.225 E.04583
G1 X108.02 Y119.086 E.04406
G1 X107.367 Y118.884 E.04574
G1 X106.735 Y118.627 E.04577
G1 X106.129 Y118.317 E.04558
G1 X105.53 Y117.94 E.04748
G1 X104.945 Y117.492 E.04939
G1 X104.439 Y117.025 E.04614
G1 X103.978 Y116.52 E.04583
G1 X103.578 Y115.996 E.04419
G1 X103.223 Y115.441 E.04416
G1 X102.905 Y114.835 E.04582
G1 X102.741 Y114.446 E.02833
G1 X76.92 Y114.446 E1.7305
G1 X74.312 Y115.281 E.18356
G1 X72.309 Y115.975 E.14205
G1 X69.313 Y117.094 E.21435
G1 X66.946 Y118.054 E.17119
G1 X66.946 Y119.055 E.06708
G1 X68.351 Y119.059 E.09417
G1 X68.79 Y119.148 E.03002
G1 X69.303 Y119.361 E.03724
G1 X69.715 Y119.645 E.03356
G1 X70.44 Y120.388 E.06954
G1 X70.648 Y120.715 E.02598
G1 X70.851 Y121.207 E.03566
G1 X70.941 Y121.646 E.03003
G1 X70.944 Y124.11 E.16512
G1 X70.896 Y124.699 E.03962
G1 X70.731 Y125.436 E.05059
G1 X70.437 Y126.183 E.05381
G1 X70.152 Y126.685 E.03869
G1 X69.843 Y127.113 E.03538
G1 X69.304 Y127.68 E.05247
G1 X68.797 Y128.078 E.04319
G1 X68.312 Y128.371 E.03794
G1 X67.826 Y128.596 E.03594
G1 X67.223 Y128.792 E.04248
G1 X66.662 Y128.901 E.03826
G1 X66.083 Y128.945 E.03891
G1 X56.956 Y128.946 E.61174
G1 X56.287 Y128.893 E.04496
G1 X55.641 Y128.754 E.0443
G1 X54.941 Y128.495 E.05004
G1 X54.327 Y128.16 E.04682
G1 X53.745 Y127.723 E.04881
G1 X53.299 Y127.281 E.04207
G1 X52.91 Y126.78 E.04248
G1 X52.658 Y126.367 E.03241
G1 X52.426 Y125.881 E.03615
G1 X52.242 Y125.348 E.03774
G1 X52.106 Y124.713 E.04354
G1 X52.054 Y124.046 E.04482
G1 X52.054 Y103.984 E1.34457
G1 X52.095 Y102.227 E.1178
G1 X52.212 Y100.733 E.10041
G1 X52.321 Y99.879 E.0577
G1 X52.452 Y99.131 E.0509
G1 X52.652 Y98.268 E.05942
G1 X53.009 Y97.142 E.07915
G1 X53.349 Y96.34 E.0584
G1 X53.646 Y95.769 E.04309
G1 X54.074 Y95.086 E.05406
G1 X54.496 Y94.529 E.04679
G1 X55.226 Y93.76 E.0711
G1 X55.696 Y93.363 E.04122
G1 X56.426 Y92.848 E.05987
G1 X56.675 Y92.704 E.01925
G1 X56.958 Y93.193 F9000
G1 F1200
G1 X57.194 Y93.056 E.01833
G1 X57.902 Y92.713 E.0527
G1 X58.381 Y92.522 E.03453
G1 X59.047 Y92.301 E.04707
G1 X59.817 Y92.099 E.05332
G1 X60.575 Y91.945 E.05188
G1 X61.973 Y91.752 E.09455
G1 X63.495 Y91.647 E.10227
